(Exported by FreeCAD)
(Post Processor: grbl_post)
(Output Time:2022-07-20 13:34:04.152224)
(Begin preamble)
G17 G90
G21
(Begin operation: Fixture)
(Path: Fixture)
G54
(Finish operation: Fixture)
(Begin operation: endmill_3mm001)
(Path: endmill_3mm001)
(endmill_3mm001)
(Begin toolchange)
( M6 T2.0 )
M3 S10000.0
(Finish operation: endmill_3mm001)
(Begin operation: DressupTag)
(Path: DressupTag)
G0 Z8.000
G0 X71.594 Y59.595 Z8.000
G0 X71.594 Y59.595 Z6.000
G1 X71.594 Y59.595 Z2.500 F180.000
G2 X73.497 Y55.091 Z2.500 I-4.598 J-4.597 K0.000 F180.000
G1 X73.500 Y-55.000 Z2.500 F180.000
G2 X67.091 Y-61.497 Z2.500 I-6.502 J0.004 K0.000 F180.000
G1 X-67.000 Y-61.500 Z2.500 F180.000
G2 X-73.497 Y-55.091 Z2.500 I0.004 J6.502 K0.000 F180.000
G1 X-73.500 Y55.000 Z2.500 F180.000
G2 X-67.091 Y61.497 Z2.500 I6.502 J-0.004 K0.000 F180.000
G1 X67.000 Y61.500 Z2.500 F180.000
G2 X71.594 Y59.595 Z2.500 I-0.004 J-6.502 K0.000 F180.000
G1 X71.594 Y59.595 Z2.000 F180.000
G2 X73.497 Y55.091 Z2.000 I-4.598 J-4.597 K0.000 F180.000
G1 X73.500 Y-55.000 Z2.000 F180.000
G2 X67.091 Y-61.497 Z2.000 I-6.502 J0.004 K0.000 F180.000
G1 X-67.000 Y-61.500 Z2.000 F180.000
G2 X-73.497 Y-55.091 Z2.000 I0.004 J6.502 K0.000 F180.000
G1 X-73.500 Y55.000 Z2.000 F180.000
G2 X-67.091 Y61.497 Z2.000 I6.502 J-0.004 K0.000 F180.000
G1 X67.000 Y61.500 Z2.000 F180.000
G2 X71.594 Y59.595 Z2.000 I-0.004 J-6.502 K0.000 F180.000
G1 X71.594 Y59.595 Z1.500 F180.000
G2 X73.497 Y55.091 Z1.500 I-4.598 J-4.597 K0.000 F180.000
G1 X73.500 Y-55.000 Z1.500 F180.000
G2 X67.091 Y-61.497 Z1.500 I-6.502 J0.004 K0.000 F180.000
G1 X-67.000 Y-61.500 Z1.500 F180.000
G2 X-73.497 Y-55.091 Z1.500 I0.004 J6.502 K0.000 F180.000
G1 X-73.500 Y55.000 Z1.500 F180.000
G2 X-67.091 Y61.497 Z1.500 I6.502 J-0.004 K0.000 F180.000
G1 X67.000 Y61.500 Z1.500 F180.000
G2 X71.594 Y59.595 Z1.500 I-0.004 J-6.502 K0.000 F180.000
G1 X71.594 Y59.595 Z1.000 F180.000
G2 X73.497 Y55.091 Z1.000 I-4.598 J-4.597 K0.000 F180.000
G1 X73.500 Y-55.000 Z1.000 F180.000
G2 X67.091 Y-61.497 Z1.000 I-6.502 J0.004 K0.000 F180.000
G1 X-67.000 Y-61.500 Z1.000 F180.000
G2 X-73.497 Y-55.091 Z1.000 I0.004 J6.502 K0.000 F180.000
G1 X-73.500 Y55.000 Z1.000 F180.000
G2 X-67.091 Y61.497 Z1.000 I6.502 J-0.004 K0.000 F180.000
G1 X67.000 Y61.500 Z1.000 F180.000
G2 X71.594 Y59.595 Z1.000 I-0.004 J-6.502 K0.000 F180.000
G1 X71.594 Y59.595 Z0.500 F180.000
G2 X73.497 Y55.091 Z0.500 I-4.598 J-4.597 K0.000 F180.000
G1 X73.500 Y-55.000 Z0.500 F180.000
G2 X67.091 Y-61.497 Z0.500 I-6.502 J0.004 K0.000 F180.000
G1 X39.558 Y-61.498 Z0.500 F180.000
G1 X39.058 Y-61.498 Z1.000 F180.000
G1 X28.078 Y-61.498 Z1.000 F180.000
G1 X27.578 Y-61.498 Z0.500 F180.000
G1 X-27.487 Y-61.499 Z0.500 F180.000
G1 X-27.987 Y-61.499 Z1.000 F180.000
G1 X-38.967 Y-61.499 Z1.000 F180.000
G1 X-39.467 Y-61.499 Z0.500 F180.000
G1 X-67.000 Y-61.500 Z0.500 F180.000
G2 X-73.497 Y-55.091 Z0.500 I0.004 J6.502 K0.000 F180.000
G1 X-73.500 Y55.000 Z0.500 F180.000
G2 X-67.091 Y61.497 Z0.500 I6.502 J-0.004 K0.000 F180.000
G1 X-39.558 Y61.498 Z0.500 F180.000
G1 X-39.058 Y61.498 Z1.000 F180.000
G1 X-28.078 Y61.498 Z1.000 F180.000
G1 X-27.578 Y61.498 Z0.500 F180.000
G1 X27.487 Y61.499 Z0.500 F180.000
G1 X27.987 Y61.499 Z1.000 F180.000
G1 X38.967 Y61.499 Z1.000 F180.000
G1 X39.467 Y61.499 Z0.500 F180.000
G1 X67.000 Y61.500 Z0.500 F180.000
G2 X71.594 Y59.595 Z0.500 I-0.004 J-6.502 K0.000 F180.000
G1 X71.594 Y59.595 Z0.000 F180.000
G2 X73.497 Y55.091 Z0.000 I-4.598 J-4.597 K0.000 F180.000
G1 X73.500 Y-55.000 Z0.000 F180.000
G2 X67.091 Y-61.497 Z0.000 I-6.502 J0.004 K0.000 F180.000
G1 X40.058 Y-61.498 Z0.000 F180.000
G1 X39.058 Y-61.498 Z1.000 F180.000
G1 X28.078 Y-61.498 Z1.000 F180.000
G1 X27.078 Y-61.498 Z0.000 F180.000
G1 X-26.987 Y-61.499 Z0.000 F180.000
G1 X-27.987 Y-61.499 Z1.000 F180.000
G1 X-38.967 Y-61.499 Z1.000 F180.000
G1 X-39.967 Y-61.499 Z0.000 F180.000
G1 X-67.000 Y-61.500 Z0.000 F180.000
G2 X-73.497 Y-55.091 Z0.000 I0.004 J6.502 K0.000 F180.000
G1 X-73.500 Y55.000 Z0.000 F180.000
G2 X-67.091 Y61.497 Z0.000 I6.502 J-0.004 K0.000 F180.000
G1 X-40.058 Y61.498 Z0.000 F180.000
G1 X-39.058 Y61.498 Z1.000 F180.000
G1 X-28.078 Y61.498 Z1.000 F180.000
G1 X-27.078 Y61.498 Z0.000 F180.000
G1 X26.987 Y61.499 Z0.000 F180.000
G1 X27.987 Y61.499 Z1.000 F180.000
G1 X38.967 Y61.499 Z1.000 F180.000
G1 X39.967 Y61.499 Z0.000 F180.000
G1 X67.000 Y61.500 Z0.000 F180.000
G2 X71.594 Y59.595 Z0.000 I-0.004 J-6.502 K0.000 F180.000
G0 X71.594 Y59.595 Z8.000
(Finish operation: DressupTag)
(Begin postamble)
M5
G17 G90
M2
