(Exported by FreeCAD)
(Post Processor: grbl_post)
(Output Time:2022-07-20 10:02:26.415428)
(Begin preamble)
G17 G90
G21
(Begin operation: Fixture)
(Path: Fixture)
G54
(Finish operation: Fixture)
(Begin operation: endmill_3mm001)
(Path: endmill_3mm001)
(endmill_3mm001)
(Begin toolchange)
( M6 T2.0 )
M3 S10000.0
(Finish operation: endmill_3mm001)
(Begin operation: holes)
(Path: holes)
(holes)
(Compensated Tool Path. Diameter: 3.0)
G0 Z8.000
G0 X-12.194 Y-6.389
G0 Z6.000
G1 X-12.194 Y-6.389 Z2.500 F50.000
G2 X-13.465 Y-10.601 Z2.500 I-1.765 J-1.765 K0.000 F50.000
G2 X-14.454 Y-5.707 Z2.500 I-0.494 J2.447 K0.000 F50.000
G2 X-12.194 Y-6.389 Z2.500 I0.494 J-2.447 K0.000 F50.000
G1 X-12.194 Y-6.389 Z2.000 F50.000
G2 X-13.465 Y-10.601 Z2.000 I-1.765 J-1.765 K0.000 F50.000
G2 X-14.454 Y-5.707 Z2.000 I-0.494 J2.447 K0.000 F50.000
G2 X-12.194 Y-6.389 Z2.000 I0.494 J-2.447 K0.000 F50.000
G1 X-12.194 Y-6.389 Z1.500 F50.000
G2 X-13.465 Y-10.601 Z1.500 I-1.765 J-1.765 K0.000 F50.000
G2 X-14.454 Y-5.707 Z1.500 I-0.494 J2.447 K0.000 F50.000
G2 X-12.194 Y-6.389 Z1.500 I0.494 J-2.447 K0.000 F50.000
G1 X-12.194 Y-6.389 Z1.000 F50.000
G2 X-13.465 Y-10.601 Z1.000 I-1.765 J-1.765 K0.000 F50.000
G2 X-14.454 Y-5.707 Z1.000 I-0.494 J2.447 K0.000 F50.000
G2 X-12.194 Y-6.389 Z1.000 I0.494 J-2.447 K0.000 F50.000
G1 X-12.194 Y-6.389 Z0.500 F50.000
G2 X-13.465 Y-10.601 Z0.500 I-1.765 J-1.765 K0.000 F50.000
G2 X-14.454 Y-5.707 Z0.500 I-0.494 J2.447 K0.000 F50.000
G2 X-12.194 Y-6.389 Z0.500 I0.494 J-2.447 K0.000 F50.000
G1 X-12.194 Y-6.389 Z0.000 F50.000
G2 X-13.465 Y-10.601 Z0.000 I-1.765 J-1.765 K0.000 F50.000
G2 X-14.454 Y-5.707 Z0.000 I-0.494 J2.447 K0.000 F50.000
G2 X-12.194 Y-6.389 Z0.000 I0.494 J-2.447 K0.000 F50.000
G0 Z8.000
G0 Z8.000
G0 X-12.194 Y-6.389
G0 X-26.716 Y-7.896
G0 X-26.716 Y-7.896 Z6.000
G1 X-26.716 Y-7.896 Z2.500 F50.000
G2 X-28.706 Y-10.601 Z2.500 I-2.483 J-0.258 K0.000 F50.000
G2 X-29.694 Y-5.707 Z2.500 I-0.494 J2.447 K0.000 F50.000
G2 X-26.716 Y-7.896 Z2.500 I0.494 J-2.447 K0.000 F50.000
G1 X-26.716 Y-7.896 Z2.000 F50.000
G2 X-28.706 Y-10.601 Z2.000 I-2.483 J-0.258 K0.000 F50.000
G2 X-29.694 Y-5.707 Z2.000 I-0.494 J2.447 K0.000 F50.000
G2 X-26.716 Y-7.896 Z2.000 I0.494 J-2.447 K0.000 F50.000
G1 X-26.716 Y-7.896 Z1.500 F50.000
G2 X-28.706 Y-10.601 Z1.500 I-2.483 J-0.258 K0.000 F50.000
G2 X-29.694 Y-5.707 Z1.500 I-0.494 J2.447 K0.000 F50.000
G2 X-26.716 Y-7.896 Z1.500 I0.494 J-2.447 K0.000 F50.000
G1 X-26.716 Y-7.896 Z1.000 F50.000
G2 X-28.706 Y-10.601 Z1.000 I-2.483 J-0.258 K0.000 F50.000
G2 X-29.694 Y-5.707 Z1.000 I-0.494 J2.447 K0.000 F50.000
G2 X-26.716 Y-7.896 Z1.000 I0.494 J-2.447 K0.000 F50.000
G1 X-26.716 Y-7.896 Z0.500 F50.000
G2 X-28.706 Y-10.601 Z0.500 I-2.483 J-0.258 K0.000 F50.000
G2 X-29.694 Y-5.707 Z0.500 I-0.494 J2.447 K0.000 F50.000
G2 X-26.716 Y-7.896 Z0.500 I0.494 J-2.447 K0.000 F50.000
G1 X-26.716 Y-7.896 Z0.000 F50.000
G2 X-28.706 Y-10.601 Z0.000 I-2.483 J-0.258 K0.000 F50.000
G2 X-29.694 Y-5.707 Z0.000 I-0.494 J2.447 K0.000 F50.000
G2 X-26.716 Y-7.896 Z0.000 I0.494 J-2.447 K0.000 F50.000
G0 Z8.000
G0 Z8.000
G0 X-26.716 Y-7.896
G0 X-41.943 Y-8.118
G0 X-41.943 Y-8.118 Z6.000
G1 X-41.943 Y-8.118 Z2.500 F50.000
G2 X-43.946 Y-10.601 Z2.500 I-2.497 J-0.036 K0.000 F50.000
G2 X-44.934 Y-5.707 Z2.500 I-0.494 J2.447 K0.000 F50.000
G2 X-41.943 Y-8.118 Z2.500 I0.494 J-2.447 K0.000 F50.000
G1 X-41.943 Y-8.118 Z2.000 F50.000
G2 X-43.946 Y-10.601 Z2.000 I-2.497 J-0.036 K0.000 F50.000
G2 X-44.934 Y-5.707 Z2.000 I-0.494 J2.447 K0.000 F50.000
G2 X-41.943 Y-8.118 Z2.000 I0.494 J-2.447 K0.000 F50.000
G1 X-41.943 Y-8.118 Z1.500 F50.000
G2 X-43.946 Y-10.601 Z1.500 I-2.497 J-0.036 K0.000 F50.000
G2 X-44.934 Y-5.707 Z1.500 I-0.494 J2.447 K0.000 F50.000
G2 X-41.943 Y-8.118 Z1.500 I0.494 J-2.447 K0.000 F50.000
G1 X-41.943 Y-8.118 Z1.000 F50.000
G2 X-43.946 Y-10.601 Z1.000 I-2.497 J-0.036 K0.000 F50.000
G2 X-44.934 Y-5.707 Z1.000 I-0.494 J2.447 K0.000 F50.000
G2 X-41.943 Y-8.118 Z1.000 I0.494 J-2.447 K0.000 F50.000
G1 X-41.943 Y-8.118 Z0.500 F50.000
G2 X-43.946 Y-10.601 Z0.500 I-2.497 J-0.036 K0.000 F50.000
G2 X-44.934 Y-5.707 Z0.500 I-0.494 J2.447 K0.000 F50.000
G2 X-41.943 Y-8.118 Z0.500 I0.494 J-2.447 K0.000 F50.000
G1 X-41.943 Y-8.118 Z0.000 F50.000
G2 X-43.946 Y-10.601 Z0.000 I-2.497 J-0.036 K0.000 F50.000
G2 X-44.934 Y-5.707 Z0.000 I-0.494 J2.447 K0.000 F50.000
G2 X-41.943 Y-8.118 Z0.000 I0.494 J-2.447 K0.000 F50.000
G0 Z8.000
G0 Z8.000
G0 X-41.943 Y-8.118
G0 X-57.183 Y-8.149
G0 X-57.183 Y-8.149 Z6.000
G1 X-57.183 Y-8.149 Z2.500 F50.000
G2 X-59.186 Y-10.601 Z2.500 I-2.497 J-0.005 K0.000 F50.000
G2 X-62.127 Y-8.648 Z2.500 I-0.494 J2.447 K0.000 F50.000
G2 X-60.174 Y-5.707 Z2.500 I2.447 J0.494 K0.000 F50.000
G2 X-57.183 Y-8.149 Z2.500 I0.494 J-2.447 K0.000 F50.000
G1 X-57.183 Y-8.149 Z2.000 F50.000
G2 X-59.186 Y-10.601 Z2.000 I-2.497 J-0.005 K0.000 F50.000
G2 X-62.127 Y-8.648 Z2.000 I-0.494 J2.447 K0.000 F50.000
G2 X-60.174 Y-5.707 Z2.000 I2.447 J0.494 K0.000 F50.000
G2 X-57.183 Y-8.149 Z2.000 I0.494 J-2.447 K0.000 F50.000
G1 X-57.183 Y-8.149 Z1.500 F50.000
G2 X-59.186 Y-10.601 Z1.500 I-2.497 J-0.005 K0.000 F50.000
G2 X-62.127 Y-8.648 Z1.500 I-0.494 J2.447 K0.000 F50.000
G2 X-60.174 Y-5.707 Z1.500 I2.447 J0.494 K0.000 F50.000
G2 X-57.183 Y-8.149 Z1.500 I0.494 J-2.447 K0.000 F50.000
G1 X-57.183 Y-8.149 Z1.000 F50.000
G2 X-59.186 Y-10.601 Z1.000 I-2.497 J-0.005 K0.000 F50.000
G2 X-62.127 Y-8.648 Z1.000 I-0.494 J2.447 K0.000 F50.000
G2 X-60.174 Y-5.707 Z1.000 I2.447 J0.494 K0.000 F50.000
G2 X-57.183 Y-8.149 Z1.000 I0.494 J-2.447 K0.000 F50.000
G1 X-57.183 Y-8.149 Z0.500 F50.000
G2 X-59.186 Y-10.601 Z0.500 I-2.497 J-0.005 K0.000 F50.000
G2 X-62.127 Y-8.648 Z0.500 I-0.494 J2.447 K0.000 F50.000
G2 X-60.174 Y-5.707 Z0.500 I2.447 J0.494 K0.000 F50.000
G2 X-57.183 Y-8.149 Z0.500 I0.494 J-2.447 K0.000 F50.000
G1 X-57.183 Y-8.149 Z0.000 F50.000
G2 X-59.186 Y-10.601 Z0.000 I-2.497 J-0.005 K0.000 F50.000
G2 X-62.127 Y-8.648 Z0.000 I-0.494 J2.447 K0.000 F50.000
G2 X-60.174 Y-5.707 Z0.000 I2.447 J0.494 K0.000 F50.000
G2 X-57.183 Y-8.149 Z0.000 I0.494 J-2.447 K0.000 F50.000
G0 Z8.000
G0 Z8.000
G0 X-57.183 Y-8.149
G0 X-59.333 Y7.153
G0 X-59.333 Y7.153 Z6.000
G1 X-59.333 Y7.153 Z2.500 F50.000
G2 X-60.174 Y12.073 Z2.500 I-0.347 J2.473 K0.000 F50.000
G2 X-59.186 Y7.178 Z2.500 I0.494 J-2.447 K0.000 F50.000
G2 X-59.333 Y7.153 Z2.500 I-0.494 J2.447 K0.000 F50.000
G1 X-59.333 Y7.153 Z2.000 F50.000
G2 X-60.174 Y12.073 Z2.000 I-0.347 J2.473 K0.000 F50.000
G2 X-59.186 Y7.178 Z2.000 I0.494 J-2.447 K0.000 F50.000
G2 X-59.333 Y7.153 Z2.000 I-0.494 J2.447 K0.000 F50.000
G1 X-59.333 Y7.153 Z1.500 F50.000
G2 X-60.174 Y12.073 Z1.500 I-0.347 J2.473 K0.000 F50.000
G2 X-59.186 Y7.178 Z1.500 I0.494 J-2.447 K0.000 F50.000
G2 X-59.333 Y7.153 Z1.500 I-0.494 J2.447 K0.000 F50.000
G1 X-59.333 Y7.153 Z1.000 F50.000
G2 X-60.174 Y12.073 Z1.000 I-0.347 J2.473 K0.000 F50.000
G2 X-59.186 Y7.178 Z1.000 I0.494 J-2.447 K0.000 F50.000
G2 X-59.333 Y7.153 Z1.000 I-0.494 J2.447 K0.000 F50.000
G1 X-59.333 Y7.153 Z0.500 F50.000
G2 X-60.174 Y12.073 Z0.500 I-0.347 J2.473 K0.000 F50.000
G2 X-59.186 Y7.178 Z0.500 I0.494 J-2.447 K0.000 F50.000
G2 X-59.333 Y7.153 Z0.500 I-0.494 J2.447 K0.000 F50.000
G1 X-59.333 Y7.153 Z0.000 F50.000
G2 X-60.174 Y12.073 Z0.000 I-0.347 J2.473 K0.000 F50.000
G2 X-59.186 Y7.178 Z0.000 I0.494 J-2.447 K0.000 F50.000
G2 X-59.333 Y7.153 Z0.000 I-0.494 J2.447 K0.000 F50.000
G0 Z8.000
G0 Z8.000
G0 X-59.333 Y7.153
G0 X-46.903 Y9.217
G0 X-46.903 Y9.217 Z6.000
G1 X-46.903 Y9.217 Z2.500 F50.000
G2 X-44.934 Y12.073 Z2.500 I2.463 J0.409 K0.000 F50.000
G2 X-43.946 Y7.178 Z2.500 I0.494 J-2.447 K0.000 F50.000
G2 X-46.903 Y9.217 Z2.500 I-0.494 J2.447 K0.000 F50.000
G1 X-46.903 Y9.217 Z2.000 F50.000
G2 X-44.934 Y12.073 Z2.000 I2.463 J0.409 K0.000 F50.000
G2 X-43.946 Y7.178 Z2.000 I0.494 J-2.447 K0.000 F50.000
G2 X-46.903 Y9.217 Z2.000 I-0.494 J2.447 K0.000 F50.000
G1 X-46.903 Y9.217 Z1.500 F50.000
G2 X-44.934 Y12.073 Z1.500 I2.463 J0.409 K0.000 F50.000
G2 X-43.946 Y7.178 Z1.500 I0.494 J-2.447 K0.000 F50.000
G2 X-46.903 Y9.217 Z1.500 I-0.494 J2.447 K0.000 F50.000
G1 X-46.903 Y9.217 Z1.000 F50.000
G2 X-44.934 Y12.073 Z1.000 I2.463 J0.409 K0.000 F50.000
G2 X-43.946 Y7.178 Z1.000 I0.494 J-2.447 K0.000 F50.000
G2 X-46.903 Y9.217 Z1.000 I-0.494 J2.447 K0.000 F50.000
G1 X-46.903 Y9.217 Z0.500 F50.000
G2 X-44.934 Y12.073 Z0.500 I2.463 J0.409 K0.000 F50.000
G2 X-43.946 Y7.178 Z0.500 I0.494 J-2.447 K0.000 F50.000
G2 X-46.903 Y9.217 Z0.500 I-0.494 J2.447 K0.000 F50.000
G1 X-46.903 Y9.217 Z0.000 F50.000
G2 X-44.934 Y12.073 Z0.000 I2.463 J0.409 K0.000 F50.000
G2 X-43.946 Y7.178 Z0.000 I0.494 J-2.447 K0.000 F50.000
G2 X-46.903 Y9.217 Z0.000 I-0.494 J2.447 K0.000 F50.000
G0 Z8.000
G0 Z8.000
G0 X-46.903 Y9.217
G0 X-31.696 Y9.568
G0 X-31.696 Y9.568 Z6.000
G1 X-31.696 Y9.568 Z2.500 F50.000
G2 X-29.694 Y12.073 Z2.500 I2.496 J0.058 K0.000 F50.000
G2 X-28.706 Y7.178 Z2.500 I0.494 J-2.447 K0.000 F50.000
G2 X-31.696 Y9.568 Z2.500 I-0.494 J2.447 K0.000 F50.000
G1 X-31.696 Y9.568 Z2.000 F50.000
G2 X-29.694 Y12.073 Z2.000 I2.496 J0.058 K0.000 F50.000
G2 X-28.706 Y7.178 Z2.000 I0.494 J-2.447 K0.000 F50.000
G2 X-31.696 Y9.568 Z2.000 I-0.494 J2.447 K0.000 F50.000
G1 X-31.696 Y9.568 Z1.500 F50.000
G2 X-29.694 Y12.073 Z1.500 I2.496 J0.058 K0.000 F50.000
G2 X-28.706 Y7.178 Z1.500 I0.494 J-2.447 K0.000 F50.000
G2 X-31.696 Y9.568 Z1.500 I-0.494 J2.447 K0.000 F50.000
G1 X-31.696 Y9.568 Z1.000 F50.000
G2 X-29.694 Y12.073 Z1.000 I2.496 J0.058 K0.000 F50.000
G2 X-28.706 Y7.178 Z1.000 I0.494 J-2.447 K0.000 F50.000
G2 X-31.696 Y9.568 Z1.000 I-0.494 J2.447 K0.000 F50.000
G1 X-31.696 Y9.568 Z0.500 F50.000
G2 X-29.694 Y12.073 Z0.500 I2.496 J0.058 K0.000 F50.000
G2 X-28.706 Y7.178 Z0.500 I0.494 J-2.447 K0.000 F50.000
G2 X-31.696 Y9.568 Z0.500 I-0.494 J2.447 K0.000 F50.000
G1 X-31.696 Y9.568 Z0.000 F50.000
G2 X-29.694 Y12.073 Z0.000 I2.496 J0.058 K0.000 F50.000
G2 X-28.706 Y7.178 Z0.000 I0.494 J-2.447 K0.000 F50.000
G2 X-31.696 Y9.568 Z0.000 I-0.494 J2.447 K0.000 F50.000
G0 Z8.000
G0 Z8.000
G0 X-31.696 Y9.568
G0 X-16.456 Y9.617
G0 X-16.456 Y9.617 Z6.000
G1 X-16.456 Y9.617 Z2.500 F50.000
G2 X-14.454 Y12.073 Z2.500 I2.497 J0.008 K0.000 F50.000
G2 X-11.512 Y10.120 Z2.500 I0.494 J-2.447 K0.000 F50.000
G2 X-13.465 Y7.178 Z2.500 I-2.447 J-0.494 K0.000 F50.000
G2 X-16.456 Y9.617 Z2.500 I-0.494 J2.447 K0.000 F50.000
G1 X-16.456 Y9.617 Z2.000 F50.000
G2 X-14.454 Y12.073 Z2.000 I2.497 J0.008 K0.000 F50.000
G2 X-11.512 Y10.120 Z2.000 I0.494 J-2.447 K0.000 F50.000
G2 X-13.465 Y7.178 Z2.000 I-2.447 J-0.494 K0.000 F50.000
G2 X-16.456 Y9.617 Z2.000 I-0.494 J2.447 K0.000 F50.000
G1 X-16.456 Y9.617 Z1.500 F50.000
G2 X-14.454 Y12.073 Z1.500 I2.497 J0.008 K0.000 F50.000
G2 X-11.512 Y10.120 Z1.500 I0.494 J-2.447 K0.000 F50.000
G2 X-13.465 Y7.178 Z1.500 I-2.447 J-0.494 K0.000 F50.000
G2 X-16.456 Y9.617 Z1.500 I-0.494 J2.447 K0.000 F50.000
G1 X-16.456 Y9.617 Z1.000 F50.000
G2 X-14.454 Y12.073 Z1.000 I2.497 J0.008 K0.000 F50.000
G2 X-11.512 Y10.120 Z1.000 I0.494 J-2.447 K0.000 F50.000
G2 X-13.465 Y7.178 Z1.000 I-2.447 J-0.494 K0.000 F50.000
G2 X-16.456 Y9.617 Z1.000 I-0.494 J2.447 K0.000 F50.000
G1 X-16.456 Y9.617 Z0.500 F50.000
G2 X-14.454 Y12.073 Z0.500 I2.497 J0.008 K0.000 F50.000
G2 X-11.512 Y10.120 Z0.500 I0.494 J-2.447 K0.000 F50.000
G2 X-13.465 Y7.178 Z0.500 I-2.447 J-0.494 K0.000 F50.000
G2 X-16.456 Y9.617 Z0.500 I-0.494 J2.447 K0.000 F50.000
G1 X-16.456 Y9.617 Z0.000 F50.000
G2 X-14.454 Y12.073 Z0.000 I2.497 J0.008 K0.000 F50.000
G2 X-11.512 Y10.120 Z0.000 I0.494 J-2.447 K0.000 F50.000
G2 X-13.465 Y7.178 Z0.000 I-2.447 J-0.494 K0.000 F50.000
G2 X-16.456 Y9.617 Z0.000 I-0.494 J2.447 K0.000 F50.000
G0 Z8.000
G0 Z8.000
G0 X-16.456 Y9.617
G0 X-14.307 Y24.933
G0 X-14.307 Y24.933 Z6.000
G1 X-14.307 Y24.933 Z2.500 F50.000
G2 X-14.454 Y29.853 Z2.500 I0.347 J2.473 K0.000 F50.000
G2 X-13.465 Y24.958 Z2.500 I0.494 J-2.447 K0.000 F50.000
G2 X-14.307 Y24.933 Z2.500 I-0.494 J2.447 K0.000 F50.000
G1 X-14.307 Y24.933 Z2.000 F50.000
G2 X-14.454 Y29.853 Z2.000 I0.347 J2.473 K0.000 F50.000
G2 X-13.465 Y24.958 Z2.000 I0.494 J-2.447 K0.000 F50.000
G2 X-14.307 Y24.933 Z2.000 I-0.494 J2.447 K0.000 F50.000
G1 X-14.307 Y24.933 Z1.500 F50.000
G2 X-14.454 Y29.853 Z1.500 I0.347 J2.473 K0.000 F50.000
G2 X-13.465 Y24.958 Z1.500 I0.494 J-2.447 K0.000 F50.000
G2 X-14.307 Y24.933 Z1.500 I-0.494 J2.447 K0.000 F50.000
G1 X-14.307 Y24.933 Z1.000 F50.000
G2 X-14.454 Y29.853 Z1.000 I0.347 J2.473 K0.000 F50.000
G2 X-13.465 Y24.958 Z1.000 I0.494 J-2.447 K0.000 F50.000
G2 X-14.307 Y24.933 Z1.000 I-0.494 J2.447 K0.000 F50.000
G1 X-14.307 Y24.933 Z0.500 F50.000
G2 X-14.454 Y29.853 Z0.500 I0.347 J2.473 K0.000 F50.000
G2 X-13.465 Y24.958 Z0.500 I0.494 J-2.447 K0.000 F50.000
G2 X-14.307 Y24.933 Z0.500 I-0.494 J2.447 K0.000 F50.000
G1 X-14.307 Y24.933 Z0.000 F50.000
G2 X-14.454 Y29.853 Z0.000 I0.347 J2.473 K0.000 F50.000
G2 X-13.465 Y24.958 Z0.000 I0.494 J-2.447 K0.000 F50.000
G2 X-14.307 Y24.933 Z0.000 I-0.494 J2.447 K0.000 F50.000
G0 Z8.000
G0 Z8.000
G0 X-14.307 Y24.933
G0 X-26.737 Y26.997
G0 X-26.737 Y26.997 Z6.000
G1 X-26.737 Y26.997 Z2.500 F50.000
G2 X-28.706 Y24.958 Z2.500 I-2.463 J0.409 K0.000 F50.000
G2 X-31.647 Y26.911 Z2.500 I-0.494 J2.447 K0.000 F50.000
G2 X-29.694 Y29.853 Z2.500 I2.447 J0.494 K0.000 F50.000
G2 X-26.737 Y26.997 Z2.500 I0.494 J-2.447 K0.000 F50.000
G1 X-26.737 Y26.997 Z2.000 F50.000
G2 X-28.706 Y24.958 Z2.000 I-2.463 J0.409 K0.000 F50.000
G2 X-31.647 Y26.911 Z2.000 I-0.494 J2.447 K0.000 F50.000
G2 X-29.694 Y29.853 Z2.000 I2.447 J0.494 K0.000 F50.000
G2 X-26.737 Y26.997 Z2.000 I0.494 J-2.447 K0.000 F50.000
G1 X-26.737 Y26.997 Z1.500 F50.000
G2 X-28.706 Y24.958 Z1.500 I-2.463 J0.409 K0.000 F50.000
G2 X-31.647 Y26.911 Z1.500 I-0.494 J2.447 K0.000 F50.000
G2 X-29.694 Y29.853 Z1.500 I2.447 J0.494 K0.000 F50.000
G2 X-26.737 Y26.997 Z1.500 I0.494 J-2.447 K0.000 F50.000
G1 X-26.737 Y26.997 Z1.000 F50.000
G2 X-28.706 Y24.958 Z1.000 I-2.463 J0.409 K0.000 F50.000
G2 X-31.647 Y26.911 Z1.000 I-0.494 J2.447 K0.000 F50.000
G2 X-29.694 Y29.853 Z1.000 I2.447 J0.494 K0.000 F50.000
G2 X-26.737 Y26.997 Z1.000 I0.494 J-2.447 K0.000 F50.000
G1 X-26.737 Y26.997 Z0.500 F50.000
G2 X-28.706 Y24.958 Z0.500 I-2.463 J0.409 K0.000 F50.000
G2 X-31.647 Y26.911 Z0.500 I-0.494 J2.447 K0.000 F50.000
G2 X-29.694 Y29.853 Z0.500 I2.447 J0.494 K0.000 F50.000
G2 X-26.737 Y26.997 Z0.500 I0.494 J-2.447 K0.000 F50.000
G1 X-26.737 Y26.997 Z0.000 F50.000
G2 X-28.706 Y24.958 Z0.000 I-2.463 J0.409 K0.000 F50.000
G2 X-31.647 Y26.911 Z0.000 I-0.494 J2.447 K0.000 F50.000
G2 X-29.694 Y29.853 Z0.000 I2.447 J0.494 K0.000 F50.000
G2 X-26.737 Y26.997 Z0.000 I0.494 J-2.447 K0.000 F50.000
G0 Z8.000
G0 Z8.000
G0 X-26.737 Y26.997
G0 X-41.944 Y27.348
G0 X-41.944 Y27.348 Z6.000
G1 X-41.944 Y27.348 Z2.500 F50.000
G2 X-43.946 Y24.958 Z2.500 I-2.496 J0.058 K0.000 F50.000
G2 X-44.934 Y29.853 Z2.500 I-0.494 J2.447 K0.000 F50.000
G2 X-41.944 Y27.348 Z2.500 I0.494 J-2.447 K0.000 F50.000
G1 X-41.944 Y27.348 Z2.000 F50.000
G2 X-43.946 Y24.958 Z2.000 I-2.496 J0.058 K0.000 F50.000
G2 X-44.934 Y29.853 Z2.000 I-0.494 J2.447 K0.000 F50.000
G2 X-41.944 Y27.348 Z2.000 I0.494 J-2.447 K0.000 F50.000
G1 X-41.944 Y27.348 Z1.500 F50.000
G2 X-43.946 Y24.958 Z1.500 I-2.496 J0.058 K0.000 F50.000
G2 X-44.934 Y29.853 Z1.500 I-0.494 J2.447 K0.000 F50.000
G2 X-41.944 Y27.348 Z1.500 I0.494 J-2.447 K0.000 F50.000
G1 X-41.944 Y27.348 Z1.000 F50.000
G2 X-43.946 Y24.958 Z1.000 I-2.496 J0.058 K0.000 F50.000
G2 X-44.934 Y29.853 Z1.000 I-0.494 J2.447 K0.000 F50.000
G2 X-41.944 Y27.348 Z1.000 I0.494 J-2.447 K0.000 F50.000
G1 X-41.944 Y27.348 Z0.500 F50.000
G2 X-43.946 Y24.958 Z0.500 I-2.496 J0.058 K0.000 F50.000
G2 X-44.934 Y29.853 Z0.500 I-0.494 J2.447 K0.000 F50.000
G2 X-41.944 Y27.348 Z0.500 I0.494 J-2.447 K0.000 F50.000
G1 X-41.944 Y27.348 Z0.000 F50.000
G2 X-43.946 Y24.958 Z0.000 I-2.496 J0.058 K0.000 F50.000
G2 X-44.934 Y29.853 Z0.000 I-0.494 J2.447 K0.000 F50.000
G2 X-41.944 Y27.348 Z0.000 I0.494 J-2.447 K0.000 F50.000
G0 Z8.000
G0 Z8.000
G0 X-41.944 Y27.348
G0 X-57.183 Y27.397
G0 X-57.183 Y27.397 Z6.000
G1 X-57.183 Y27.397 Z2.500 F50.000
G2 X-59.186 Y24.958 Z2.500 I-2.497 J0.008 K0.000 F50.000
G2 X-60.174 Y29.853 Z2.500 I-0.494 J2.447 K0.000 F50.000
G2 X-57.183 Y27.397 Z2.500 I0.494 J-2.447 K0.000 F50.000
G1 X-57.183 Y27.397 Z2.000 F50.000
G2 X-59.186 Y24.958 Z2.000 I-2.497 J0.008 K0.000 F50.000
G2 X-60.174 Y29.853 Z2.000 I-0.494 J2.447 K0.000 F50.000
G2 X-57.183 Y27.397 Z2.000 I0.494 J-2.447 K0.000 F50.000
G1 X-57.183 Y27.397 Z1.500 F50.000
G2 X-59.186 Y24.958 Z1.500 I-2.497 J0.008 K0.000 F50.000
G2 X-60.174 Y29.853 Z1.500 I-0.494 J2.447 K0.000 F50.000
G2 X-57.183 Y27.397 Z1.500 I0.494 J-2.447 K0.000 F50.000
G1 X-57.183 Y27.397 Z1.000 F50.000
G2 X-59.186 Y24.958 Z1.000 I-2.497 J0.008 K0.000 F50.000
G2 X-60.174 Y29.853 Z1.000 I-0.494 J2.447 K0.000 F50.000
G2 X-57.183 Y27.397 Z1.000 I0.494 J-2.447 K0.000 F50.000
G1 X-57.183 Y27.397 Z0.500 F50.000
G2 X-59.186 Y24.958 Z0.500 I-2.497 J0.008 K0.000 F50.000
G2 X-60.174 Y29.853 Z0.500 I-0.494 J2.447 K0.000 F50.000
G2 X-57.183 Y27.397 Z0.500 I0.494 J-2.447 K0.000 F50.000
G1 X-57.183 Y27.397 Z0.000 F50.000
G2 X-59.186 Y24.958 Z0.000 I-2.497 J0.008 K0.000 F50.000
G2 X-60.174 Y29.853 Z0.000 I-0.494 J2.447 K0.000 F50.000
G2 X-57.183 Y27.397 Z0.000 I0.494 J-2.447 K0.000 F50.000
G0 Z8.000
G0 Z8.000
G0 X-57.183 Y27.397
G0 X-64.277 Y42.467
G0 X-64.277 Y42.467 Z6.000
G1 X-64.277 Y42.467 Z2.500 F50.000
G2 X-64.476 Y42.388 Z2.500 I-0.722 J1.534 K0.000 F50.000
G2 X-66.612 Y43.477 Z2.500 I-0.524 J1.612 K0.000 F50.000
G2 X-65.524 Y45.613 Z2.500 I1.612 J0.524 K0.000 F50.000
G2 X-64.277 Y42.467 Z2.500 I0.524 J-1.612 K0.000 F50.000
G1 X-64.277 Y42.467 Z2.000 F50.000
G2 X-64.476 Y42.388 Z2.000 I-0.722 J1.534 K0.000 F50.000
G2 X-66.612 Y43.477 Z2.000 I-0.524 J1.612 K0.000 F50.000
G2 X-65.524 Y45.613 Z2.000 I1.612 J0.524 K0.000 F50.000
G2 X-64.277 Y42.467 Z2.000 I0.524 J-1.612 K0.000 F50.000
G1 X-64.277 Y42.467 Z1.500 F50.000
G2 X-64.476 Y42.388 Z1.500 I-0.722 J1.534 K0.000 F50.000
G2 X-66.612 Y43.477 Z1.500 I-0.524 J1.612 K0.000 F50.000
G2 X-65.524 Y45.613 Z1.500 I1.612 J0.524 K0.000 F50.000
G2 X-64.277 Y42.467 Z1.500 I0.524 J-1.612 K0.000 F50.000
G1 X-64.277 Y42.467 Z1.000 F50.000
G2 X-64.476 Y42.388 Z1.000 I-0.722 J1.534 K0.000 F50.000
G2 X-66.612 Y43.477 Z1.000 I-0.524 J1.612 K0.000 F50.000
G2 X-65.524 Y45.613 Z1.000 I1.612 J0.524 K0.000 F50.000
G2 X-64.277 Y42.467 Z1.000 I0.524 J-1.612 K0.000 F50.000
G1 X-64.277 Y42.467 Z0.500 F50.000
G2 X-64.476 Y42.388 Z0.500 I-0.722 J1.534 K0.000 F50.000
G2 X-66.612 Y43.477 Z0.500 I-0.524 J1.612 K0.000 F50.000
G2 X-65.524 Y45.613 Z0.500 I1.612 J0.524 K0.000 F50.000
G2 X-64.277 Y42.467 Z0.500 I0.524 J-1.612 K0.000 F50.000
G1 X-64.277 Y42.467 Z0.000 F50.000
G2 X-64.476 Y42.388 Z0.000 I-0.722 J1.534 K0.000 F50.000
G2 X-66.612 Y43.477 Z0.000 I-0.524 J1.612 K0.000 F50.000
G2 X-65.524 Y45.613 Z0.000 I1.612 J0.524 K0.000 F50.000
G2 X-64.277 Y42.467 Z0.000 I0.524 J-1.612 K0.000 F50.000
G0 Z8.000
G0 Z8.000
G0 X-64.277 Y42.467
G0 X-66.972 Y54.911
G0 X-66.972 Y54.911 Z6.000
G1 X-66.972 Y54.911 Z2.500 F50.000
G2 X-67.089 Y54.972 Z2.500 I-0.028 J0.089 K0.000 F50.000
G2 X-67.028 Y55.089 Z2.500 I0.089 J0.028 K0.000 F50.000
G2 X-66.972 Y54.911 Z2.500 I0.028 J-0.089 K0.000 F50.000
G1 X-66.972 Y54.911 Z2.000 F50.000
G2 X-67.089 Y54.972 Z2.000 I-0.028 J0.089 K0.000 F50.000
G2 X-67.028 Y55.089 Z2.000 I0.089 J0.028 K0.000 F50.000
G2 X-66.972 Y54.911 Z2.000 I0.028 J-0.089 K0.000 F50.000
G1 X-66.972 Y54.911 Z1.500 F50.000
G2 X-67.089 Y54.972 Z1.500 I-0.028 J0.089 K0.000 F50.000
G2 X-67.028 Y55.089 Z1.500 I0.089 J0.028 K0.000 F50.000
G2 X-66.972 Y54.911 Z1.500 I0.028 J-0.089 K0.000 F50.000
G1 X-66.972 Y54.911 Z1.000 F50.000
G2 X-67.089 Y54.972 Z1.000 I-0.028 J0.089 K0.000 F50.000
G2 X-67.028 Y55.089 Z1.000 I0.089 J0.028 K0.000 F50.000
G2 X-66.972 Y54.911 Z1.000 I0.028 J-0.089 K0.000 F50.000
G1 X-66.972 Y54.911 Z0.500 F50.000
G2 X-67.089 Y54.972 Z0.500 I-0.028 J0.089 K0.000 F50.000
G2 X-67.028 Y55.089 Z0.500 I0.089 J0.028 K0.000 F50.000
G2 X-66.972 Y54.911 Z0.500 I0.028 J-0.089 K0.000 F50.000
G1 X-66.972 Y54.911 Z0.000 F50.000
G2 X-67.089 Y54.972 Z0.000 I-0.028 J0.089 K0.000 F50.000
G2 X-67.028 Y55.089 Z0.000 I0.089 J0.028 K0.000 F50.000
G2 X-66.972 Y54.911 Z0.000 I0.028 J-0.089 K0.000 F50.000
G0 Z8.000
G0 Z8.000
G0 X-66.972 Y54.911
G0 X-54.819 Y49.934
G0 X-54.819 Y49.934 Z6.000
G1 X-54.819 Y49.934 Z2.500 F50.000
G2 X-50.875 Y53.228 Z2.500 I5.088 J-2.084 K0.000 F50.000
G2 X-44.354 Y48.993 Z2.500 I1.143 J-5.378 K0.000 F50.000
G2 X-48.589 Y42.473 Z2.500 I-5.378 J-1.143 K0.000 F50.000
G2 X-54.819 Y49.934 Z2.500 I-1.143 J5.378 K0.000 F50.000
G1 X-54.819 Y49.934 Z2.000 F50.000
G2 X-50.875 Y53.228 Z2.000 I5.088 J-2.084 K0.000 F50.000
G2 X-44.354 Y48.993 Z2.000 I1.143 J-5.378 K0.000 F50.000
G2 X-48.589 Y42.473 Z2.000 I-5.378 J-1.143 K0.000 F50.000
G2 X-54.819 Y49.934 Z2.000 I-1.143 J5.378 K0.000 F50.000
G1 X-54.819 Y49.934 Z1.500 F50.000
G2 X-50.875 Y53.228 Z1.500 I5.088 J-2.084 K0.000 F50.000
G2 X-44.354 Y48.993 Z1.500 I1.143 J-5.378 K0.000 F50.000
G2 X-48.589 Y42.473 Z1.500 I-5.378 J-1.143 K0.000 F50.000
G2 X-54.819 Y49.934 Z1.500 I-1.143 J5.378 K0.000 F50.000
G1 X-54.819 Y49.934 Z1.000 F50.000
G2 X-50.875 Y53.228 Z1.000 I5.088 J-2.084 K0.000 F50.000
G2 X-44.354 Y48.993 Z1.000 I1.143 J-5.378 K0.000 F50.000
G2 X-48.589 Y42.473 Z1.000 I-5.378 J-1.143 K0.000 F50.000
G2 X-54.819 Y49.934 Z1.000 I-1.143 J5.378 K0.000 F50.000
G1 X-54.819 Y49.934 Z0.500 F50.000
G2 X-50.875 Y53.228 Z0.500 I5.088 J-2.084 K0.000 F50.000
G2 X-44.354 Y48.993 Z0.500 I1.143 J-5.378 K0.000 F50.000
G2 X-48.589 Y42.473 Z0.500 I-5.378 J-1.143 K0.000 F50.000
G2 X-54.819 Y49.934 Z0.500 I-1.143 J5.378 K0.000 F50.000
G1 X-54.819 Y49.934 Z0.000 F50.000
G2 X-50.875 Y53.228 Z0.000 I5.088 J-2.084 K0.000 F50.000
G2 X-44.354 Y48.993 Z0.000 I1.143 J-5.378 K0.000 F50.000
G2 X-48.589 Y42.473 Z0.000 I-5.378 J-1.143 K0.000 F50.000
G2 X-54.819 Y49.934 Z0.000 I-1.143 J5.378 K0.000 F50.000
G0 Z8.000
G0 Z8.000
G0 X-54.819 Y49.934
G0 X-39.984 Y48.412
G0 X-39.984 Y48.412 Z6.000
G1 X-39.984 Y48.412 Z2.500 F50.000
G2 X-35.658 Y53.228 Z2.500 I5.469 J-0.561 K0.000 F50.000
G2 X-29.137 Y48.993 Z2.500 I1.143 J-5.378 K0.000 F50.000
G2 X-33.372 Y42.473 Z2.500 I-5.378 J-1.143 K0.000 F50.000
G2 X-39.984 Y48.412 Z2.500 I-1.143 J5.378 K0.000 F50.000
G1 X-39.984 Y48.412 Z2.000 F50.000
G2 X-35.658 Y53.228 Z2.000 I5.469 J-0.561 K0.000 F50.000
G2 X-29.137 Y48.993 Z2.000 I1.143 J-5.378 K0.000 F50.000
G2 X-33.372 Y42.473 Z2.000 I-5.378 J-1.143 K0.000 F50.000
G2 X-39.984 Y48.412 Z2.000 I-1.143 J5.378 K0.000 F50.000
G1 X-39.984 Y48.412 Z1.500 F50.000
G2 X-35.658 Y53.228 Z1.500 I5.469 J-0.561 K0.000 F50.000
G2 X-29.137 Y48.993 Z1.500 I1.143 J-5.378 K0.000 F50.000
G2 X-33.372 Y42.473 Z1.500 I-5.378 J-1.143 K0.000 F50.000
G2 X-39.984 Y48.412 Z1.500 I-1.143 J5.378 K0.000 F50.000
G1 X-39.984 Y48.412 Z1.000 F50.000
G2 X-35.658 Y53.228 Z1.000 I5.469 J-0.561 K0.000 F50.000
G2 X-29.137 Y48.993 Z1.000 I1.143 J-5.378 K0.000 F50.000
G2 X-33.372 Y42.473 Z1.000 I-5.378 J-1.143 K0.000 F50.000
G2 X-39.984 Y48.412 Z1.000 I-1.143 J5.378 K0.000 F50.000
G1 X-39.984 Y48.412 Z0.500 F50.000
G2 X-35.658 Y53.228 Z0.500 I5.469 J-0.561 K0.000 F50.000
G2 X-29.137 Y48.993 Z0.500 I1.143 J-5.378 K0.000 F50.000
G2 X-33.372 Y42.473 Z0.500 I-5.378 J-1.143 K0.000 F50.000
G2 X-39.984 Y48.412 Z0.500 I-1.143 J5.378 K0.000 F50.000
G1 X-39.984 Y48.412 Z0.000 F50.000
G2 X-35.658 Y53.228 Z0.000 I5.469 J-0.561 K0.000 F50.000
G2 X-29.137 Y48.993 Z0.000 I1.143 J-5.378 K0.000 F50.000
G2 X-33.372 Y42.473 Z0.000 I-5.378 J-1.143 K0.000 F50.000
G2 X-39.984 Y48.412 Z0.000 I-1.143 J5.378 K0.000 F50.000
G0 Z8.000
G0 Z8.000
G0 X-39.984 Y48.412
G0 X-24.865 Y48.000
G0 X-24.865 Y48.000 Z6.000
G1 X-24.865 Y48.000 Z2.500 F50.000
G2 X-20.512 Y53.228 Z2.500 I5.496 J-0.150 K0.000 F50.000
G2 X-13.992 Y48.993 Z2.500 I1.143 J-5.378 K0.000 F50.000
G2 X-18.226 Y42.473 Z2.500 I-5.378 J-1.143 K0.000 F50.000
G2 X-24.865 Y48.000 Z2.500 I-1.143 J5.378 K0.000 F50.000
G1 X-24.865 Y48.000 Z2.000 F50.000
G2 X-20.512 Y53.228 Z2.000 I5.496 J-0.150 K0.000 F50.000
G2 X-13.992 Y48.993 Z2.000 I1.143 J-5.378 K0.000 F50.000
G2 X-18.226 Y42.473 Z2.000 I-5.378 J-1.143 K0.000 F50.000
G2 X-24.865 Y48.000 Z2.000 I-1.143 J5.378 K0.000 F50.000
G1 X-24.865 Y48.000 Z1.500 F50.000
G2 X-20.512 Y53.228 Z1.500 I5.496 J-0.150 K0.000 F50.000
G2 X-13.992 Y48.993 Z1.500 I1.143 J-5.378 K0.000 F50.000
G2 X-18.226 Y42.473 Z1.500 I-5.378 J-1.143 K0.000 F50.000
G2 X-24.865 Y48.000 Z1.500 I-1.143 J5.378 K0.000 F50.000
G1 X-24.865 Y48.000 Z1.000 F50.000
G2 X-20.512 Y53.228 Z1.000 I5.496 J-0.150 K0.000 F50.000
G2 X-13.992 Y48.993 Z1.000 I1.143 J-5.378 K0.000 F50.000
G2 X-18.226 Y42.473 Z1.000 I-5.378 J-1.143 K0.000 F50.000
G2 X-24.865 Y48.000 Z1.000 I-1.143 J5.378 K0.000 F50.000
G1 X-24.865 Y48.000 Z0.500 F50.000
G2 X-20.512 Y53.228 Z0.500 I5.496 J-0.150 K0.000 F50.000
G2 X-13.992 Y48.993 Z0.500 I1.143 J-5.378 K0.000 F50.000
G2 X-18.226 Y42.473 Z0.500 I-5.378 J-1.143 K0.000 F50.000
G2 X-24.865 Y48.000 Z0.500 I-1.143 J5.378 K0.000 F50.000
G1 X-24.865 Y48.000 Z0.000 F50.000
G2 X-20.512 Y53.228 Z0.000 I5.496 J-0.150 K0.000 F50.000
G2 X-13.992 Y48.993 Z0.000 I1.143 J-5.378 K0.000 F50.000
G2 X-18.226 Y42.473 Z0.000 I-5.378 J-1.143 K0.000 F50.000
G2 X-24.865 Y48.000 Z0.000 I-1.143 J5.378 K0.000 F50.000
G0 Z8.000
G0 Z8.000
G0 X-24.865 Y48.000
G0 X-9.521 Y47.890
G0 X-9.521 Y47.890 Z6.000
G1 X-9.521 Y47.890 Z2.500 F50.000
G2 X-5.167 Y53.228 Z2.500 I5.498 J-0.039 K0.000 F50.000
G2 X1.354 Y48.993 Z2.500 I1.143 J-5.378 K0.000 F50.000
G2 X-2.880 Y42.473 Z2.500 I-5.378 J-1.143 K0.000 F50.000
G2 X-9.521 Y47.890 Z2.500 I-1.143 J5.378 K0.000 F50.000
G1 X-9.521 Y47.890 Z2.000 F50.000
G2 X-5.167 Y53.228 Z2.000 I5.498 J-0.039 K0.000 F50.000
G2 X1.354 Y48.993 Z2.000 I1.143 J-5.378 K0.000 F50.000
G2 X-2.880 Y42.473 Z2.000 I-5.378 J-1.143 K0.000 F50.000
G2 X-9.521 Y47.890 Z2.000 I-1.143 J5.378 K0.000 F50.000
G1 X-9.521 Y47.890 Z1.500 F50.000
G2 X-5.167 Y53.228 Z1.500 I5.498 J-0.039 K0.000 F50.000
G2 X1.354 Y48.993 Z1.500 I1.143 J-5.378 K0.000 F50.000
G2 X-2.880 Y42.473 Z1.500 I-5.378 J-1.143 K0.000 F50.000
G2 X-9.521 Y47.890 Z1.500 I-1.143 J5.378 K0.000 F50.000
G1 X-9.521 Y47.890 Z1.000 F50.000
G2 X-5.167 Y53.228 Z1.000 I5.498 J-0.039 K0.000 F50.000
G2 X1.354 Y48.993 Z1.000 I1.143 J-5.378 K0.000 F50.000
G2 X-2.880 Y42.473 Z1.000 I-5.378 J-1.143 K0.000 F50.000
G2 X-9.521 Y47.890 Z1.000 I-1.143 J5.378 K0.000 F50.000
G1 X-9.521 Y47.890 Z0.500 F50.000
G2 X-5.167 Y53.228 Z0.500 I5.498 J-0.039 K0.000 F50.000
G2 X1.354 Y48.993 Z0.500 I1.143 J-5.378 K0.000 F50.000
G2 X-2.880 Y42.473 Z0.500 I-5.378 J-1.143 K0.000 F50.000
G2 X-9.521 Y47.890 Z0.500 I-1.143 J5.378 K0.000 F50.000
G1 X-9.521 Y47.890 Z0.000 F50.000
G2 X-5.167 Y53.228 Z0.000 I5.498 J-0.039 K0.000 F50.000
G2 X1.354 Y48.993 Z0.000 I1.143 J-5.378 K0.000 F50.000
G2 X-2.880 Y42.473 Z0.000 I-5.378 J-1.143 K0.000 F50.000
G2 X-9.521 Y47.890 Z0.000 I-1.143 J5.378 K0.000 F50.000
G0 Z8.000
G0 Z8.000
G0 X-9.521 Y47.890
G0 X8.200 Y49.923
G0 X8.200 Y49.923 Z6.000
G1 X8.200 Y49.923 Z2.500 F50.000
G2 X8.913 Y51.076 Z2.500 I1.087 J0.125 K0.000 F50.000
G2 X9.662 Y49.019 Z2.500 I0.374 J-1.028 K0.000 F50.000
G2 X8.200 Y49.923 Z2.500 I-0.374 J1.028 K0.000 F50.000
G1 X8.200 Y49.923 Z2.000 F50.000
G2 X8.913 Y51.076 Z2.000 I1.087 J0.125 K0.000 F50.000
G2 X9.662 Y49.019 Z2.000 I0.374 J-1.028 K0.000 F50.000
G2 X8.200 Y49.923 Z2.000 I-0.374 J1.028 K0.000 F50.000
G1 X8.200 Y49.923 Z1.500 F50.000
G2 X8.913 Y51.076 Z1.500 I1.087 J0.125 K0.000 F50.000
G2 X9.662 Y49.019 Z1.500 I0.374 J-1.028 K0.000 F50.000
G2 X8.200 Y49.923 Z1.500 I-0.374 J1.028 K0.000 F50.000
G1 X8.200 Y49.923 Z1.000 F50.000
G2 X8.913 Y51.076 Z1.000 I1.087 J0.125 K0.000 F50.000
G2 X9.662 Y49.019 Z1.000 I0.374 J-1.028 K0.000 F50.000
G2 X8.200 Y49.923 Z1.000 I-0.374 J1.028 K0.000 F50.000
G1 X8.200 Y49.923 Z0.500 F50.000
G2 X8.913 Y51.076 Z0.500 I1.087 J0.125 K0.000 F50.000
G2 X9.662 Y49.019 Z0.500 I0.374 J-1.028 K0.000 F50.000
G2 X8.200 Y49.923 Z0.500 I-0.374 J1.028 K0.000 F50.000
G1 X8.200 Y49.923 Z0.000 F50.000
G2 X8.913 Y51.076 Z0.000 I1.087 J0.125 K0.000 F50.000
G2 X9.662 Y49.019 Z0.000 I0.374 J-1.028 K0.000 F50.000
G2 X8.200 Y49.923 Z0.000 I-0.374 J1.028 K0.000 F50.000
G0 Z8.000
G0 Z8.000
G0 X8.200 Y49.923
G0 X15.893 Y50.032
G0 X15.893 Y50.032 Z6.000
G1 X15.893 Y50.032 Z2.500 F50.000
G2 X16.613 Y51.076 Z2.500 I1.094 J0.016 K0.000 F50.000
G2 X17.361 Y49.019 Z2.500 I0.374 J-1.028 K0.000 F50.000
G2 X15.893 Y50.032 Z2.500 I-0.374 J1.028 K0.000 F50.000
G1 X15.893 Y50.032 Z2.000 F50.000
G2 X16.613 Y51.076 Z2.000 I1.094 J0.016 K0.000 F50.000
G2 X17.361 Y49.019 Z2.000 I0.374 J-1.028 K0.000 F50.000
G2 X15.893 Y50.032 Z2.000 I-0.374 J1.028 K0.000 F50.000
G1 X15.893 Y50.032 Z1.500 F50.000
G2 X16.613 Y51.076 Z1.500 I1.094 J0.016 K0.000 F50.000
G2 X17.361 Y49.019 Z1.500 I0.374 J-1.028 K0.000 F50.000
G2 X15.893 Y50.032 Z1.500 I-0.374 J1.028 K0.000 F50.000
G1 X15.893 Y50.032 Z1.000 F50.000
G2 X16.613 Y51.076 Z1.000 I1.094 J0.016 K0.000 F50.000
G2 X17.361 Y49.019 Z1.000 I0.374 J-1.028 K0.000 F50.000
G2 X15.893 Y50.032 Z1.000 I-0.374 J1.028 K0.000 F50.000
G1 X15.893 Y50.032 Z0.500 F50.000
G2 X16.613 Y51.076 Z0.500 I1.094 J0.016 K0.000 F50.000
G2 X17.361 Y49.019 Z0.500 I0.374 J-1.028 K0.000 F50.000
G2 X15.893 Y50.032 Z0.500 I-0.374 J1.028 K0.000 F50.000
G1 X15.893 Y50.032 Z0.000 F50.000
G2 X16.613 Y51.076 Z0.000 I1.094 J0.016 K0.000 F50.000
G2 X17.361 Y49.019 Z0.000 I0.374 J-1.028 K0.000 F50.000
G2 X15.893 Y50.032 Z0.000 I-0.374 J1.028 K0.000 F50.000
G0 Z8.000
G0 Z8.000
G0 X15.893 Y50.032
G0 X23.593 Y50.046
G0 X23.593 Y50.046 Z6.000
G1 X23.593 Y50.046 Z2.500 F50.000
G2 X24.313 Y51.076 Z2.500 I1.094 J0.002 K0.000 F50.000
G2 X25.062 Y49.019 Z2.500 I0.374 J-1.028 K0.000 F50.000
G2 X23.593 Y50.046 Z2.500 I-0.374 J1.028 K0.000 F50.000
G1 X23.593 Y50.046 Z2.000 F50.000
G2 X24.313 Y51.076 Z2.000 I1.094 J0.002 K0.000 F50.000
G2 X25.062 Y49.019 Z2.000 I0.374 J-1.028 K0.000 F50.000
G2 X23.593 Y50.046 Z2.000 I-0.374 J1.028 K0.000 F50.000
G1 X23.593 Y50.046 Z1.500 F50.000
G2 X24.313 Y51.076 Z1.500 I1.094 J0.002 K0.000 F50.000
G2 X25.062 Y49.019 Z1.500 I0.374 J-1.028 K0.000 F50.000
G2 X23.593 Y50.046 Z1.500 I-0.374 J1.028 K0.000 F50.000
G1 X23.593 Y50.046 Z1.000 F50.000
G2 X24.313 Y51.076 Z1.000 I1.094 J0.002 K0.000 F50.000
G2 X25.062 Y49.019 Z1.000 I0.374 J-1.028 K0.000 F50.000
G2 X23.593 Y50.046 Z1.000 I-0.374 J1.028 K0.000 F50.000
G1 X23.593 Y50.046 Z0.500 F50.000
G2 X24.313 Y51.076 Z0.500 I1.094 J0.002 K0.000 F50.000
G2 X25.062 Y49.019 Z0.500 I0.374 J-1.028 K0.000 F50.000
G2 X23.593 Y50.046 Z0.500 I-0.374 J1.028 K0.000 F50.000
G1 X23.593 Y50.046 Z0.000 F50.000
G2 X24.313 Y51.076 Z0.000 I1.094 J0.002 K0.000 F50.000
G2 X25.062 Y49.019 Z0.000 I0.374 J-1.028 K0.000 F50.000
G2 X23.593 Y50.046 Z0.000 I-0.374 J1.028 K0.000 F50.000
G0 Z8.000
G0 Z8.000
G0 X23.593 Y50.046
G0 X31.193 Y50.047
G0 X31.193 Y50.047 Z6.000
G1 X31.193 Y50.047 Z2.500 F50.000
G2 X31.913 Y51.076 Z2.500 I1.094 J0.000 K0.000 F50.000
G2 X32.662 Y49.019 Z2.500 I0.374 J-1.028 K0.000 F50.000
G2 X31.193 Y50.047 Z2.500 I-0.374 J1.028 K0.000 F50.000
G1 X31.193 Y50.047 Z2.000 F50.000
G2 X31.913 Y51.076 Z2.000 I1.094 J0.000 K0.000 F50.000
G2 X32.662 Y49.019 Z2.000 I0.374 J-1.028 K0.000 F50.000
G2 X31.193 Y50.047 Z2.000 I-0.374 J1.028 K0.000 F50.000
G1 X31.193 Y50.047 Z1.500 F50.000
G2 X31.913 Y51.076 Z1.500 I1.094 J0.000 K0.000 F50.000
G2 X32.662 Y49.019 Z1.500 I0.374 J-1.028 K0.000 F50.000
G2 X31.193 Y50.047 Z1.500 I-0.374 J1.028 K0.000 F50.000
G1 X31.193 Y50.047 Z1.000 F50.000
G2 X31.913 Y51.076 Z1.000 I1.094 J0.000 K0.000 F50.000
G2 X32.662 Y49.019 Z1.000 I0.374 J-1.028 K0.000 F50.000
G2 X31.193 Y50.047 Z1.000 I-0.374 J1.028 K0.000 F50.000
G1 X31.193 Y50.047 Z0.500 F50.000
G2 X31.913 Y51.076 Z0.500 I1.094 J0.000 K0.000 F50.000
G2 X32.662 Y49.019 Z0.500 I0.374 J-1.028 K0.000 F50.000
G2 X31.193 Y50.047 Z0.500 I-0.374 J1.028 K0.000 F50.000
G1 X31.193 Y50.047 Z0.000 F50.000
G2 X31.913 Y51.076 Z0.000 I1.094 J0.000 K0.000 F50.000
G2 X32.662 Y49.019 Z0.000 I0.374 J-1.028 K0.000 F50.000
G2 X31.193 Y50.047 Z0.000 I-0.374 J1.028 K0.000 F50.000
G0 Z8.000
G0 Z8.000
G0 X31.193 Y50.047
G0 X38.693 Y50.048
G0 X38.693 Y50.048 Z6.000
G1 X38.693 Y50.048 Z2.500 F50.000
G2 X39.414 Y51.076 Z2.500 I1.094 J0.000 K0.000 F50.000
G2 X40.162 Y49.019 Z2.500 I0.374 J-1.028 K0.000 F50.000
G2 X38.693 Y50.048 Z2.500 I-0.374 J1.028 K0.000 F50.000
G1 X38.693 Y50.048 Z2.000 F50.000
G2 X39.414 Y51.076 Z2.000 I1.094 J0.000 K0.000 F50.000
G2 X40.162 Y49.019 Z2.000 I0.374 J-1.028 K0.000 F50.000
G2 X38.693 Y50.048 Z2.000 I-0.374 J1.028 K0.000 F50.000
G1 X38.693 Y50.048 Z1.500 F50.000
G2 X39.414 Y51.076 Z1.500 I1.094 J0.000 K0.000 F50.000
G2 X40.162 Y49.019 Z1.500 I0.374 J-1.028 K0.000 F50.000
G2 X38.693 Y50.048 Z1.500 I-0.374 J1.028 K0.000 F50.000
G1 X38.693 Y50.048 Z1.000 F50.000
G2 X39.414 Y51.076 Z1.000 I1.094 J0.000 K0.000 F50.000
G2 X40.162 Y49.019 Z1.000 I0.374 J-1.028 K0.000 F50.000
G2 X38.693 Y50.048 Z1.000 I-0.374 J1.028 K0.000 F50.000
G1 X38.693 Y50.048 Z0.500 F50.000
G2 X39.414 Y51.076 Z0.500 I1.094 J0.000 K0.000 F50.000
G2 X40.162 Y49.019 Z0.500 I0.374 J-1.028 K0.000 F50.000
G2 X38.693 Y50.048 Z0.500 I-0.374 J1.028 K0.000 F50.000
G1 X38.693 Y50.048 Z0.000 F50.000
G2 X39.414 Y51.076 Z0.000 I1.094 J0.000 K0.000 F50.000
G2 X40.162 Y49.019 Z0.000 I0.374 J-1.028 K0.000 F50.000
G2 X38.693 Y50.048 Z0.000 I-0.374 J1.028 K0.000 F50.000
G0 Z8.000
G0 Z8.000
G0 X38.693 Y50.048
G0 X39.775 Y43.904
G0 X39.775 Y43.904 Z6.000
G1 X39.775 Y43.904 Z2.500 F50.000
G1 X49.681 Y43.904 Z2.500 F50.000
G1 X49.681 Y-44.969 Z2.500 F50.000
G1 X39.775 Y-44.969 Z2.500 F50.000
G1 X39.775 Y43.904 Z2.500 F50.000
G1 X39.775 Y43.904 Z2.000 F50.000
G1 X49.681 Y43.904 Z2.000 F50.000
G1 X49.681 Y-44.969 Z2.000 F50.000
G1 X39.775 Y-44.969 Z2.000 F50.000
G1 X39.775 Y43.904 Z2.000 F50.000
G1 X39.775 Y43.904 Z1.500 F50.000
G1 X49.681 Y43.904 Z1.500 F50.000
G1 X49.681 Y-44.969 Z1.500 F50.000
G1 X39.775 Y-44.969 Z1.500 F50.000
G1 X39.775 Y43.904 Z1.500 F50.000
G1 X39.775 Y43.904 Z1.000 F50.000
G1 X49.681 Y43.904 Z1.000 F50.000
G1 X49.681 Y-44.969 Z1.000 F50.000
G1 X39.775 Y-44.969 Z1.000 F50.000
G1 X39.775 Y43.904 Z1.000 F50.000
G1 X39.775 Y43.904 Z0.500 F50.000
G1 X49.681 Y43.904 Z0.500 F50.000
G1 X49.681 Y-44.969 Z0.500 F50.000
G1 X39.775 Y-44.969 Z0.500 F50.000
G1 X39.775 Y43.904 Z0.500 F50.000
G1 X39.775 Y43.904 Z0.000 F50.000
G1 X49.681 Y43.904 Z0.000 F50.000
G1 X49.681 Y-44.969 Z0.000 F50.000
G1 X39.775 Y-44.969 Z0.000 F50.000
G1 X39.775 Y43.904 Z0.000 F50.000
G0 Z8.000
G0 Z8.000
G0 X39.775 Y43.904
G0 X63.305 Y43.994
G0 X63.305 Y43.994 Z6.000
G1 X63.305 Y43.994 Z2.500 F50.000
G2 X64.476 Y45.613 Z2.500 I1.695 J0.006 K0.000 F50.000
G2 X66.613 Y44.524 Z2.500 I0.524 J-1.612 K0.000 F50.000
G2 X65.524 Y42.388 Z2.500 I-1.612 J-0.524 K0.000 F50.000
G2 X63.305 Y43.994 Z2.500 I-0.524 J1.612 K0.000 F50.000
G1 X63.305 Y43.994 Z2.000 F50.000
G2 X64.476 Y45.613 Z2.000 I1.695 J0.006 K0.000 F50.000
G2 X66.613 Y44.524 Z2.000 I0.524 J-1.612 K0.000 F50.000
G2 X65.524 Y42.388 Z2.000 I-1.612 J-0.524 K0.000 F50.000
G2 X63.305 Y43.994 Z2.000 I-0.524 J1.612 K0.000 F50.000
G1 X63.305 Y43.994 Z1.500 F50.000
G2 X64.476 Y45.613 Z1.500 I1.695 J0.006 K0.000 F50.000
G2 X66.613 Y44.524 Z1.500 I0.524 J-1.612 K0.000 F50.000
G2 X65.524 Y42.388 Z1.500 I-1.612 J-0.524 K0.000 F50.000
G2 X63.305 Y43.994 Z1.500 I-0.524 J1.612 K0.000 F50.000
G1 X63.305 Y43.994 Z1.000 F50.000
G2 X64.476 Y45.613 Z1.000 I1.695 J0.006 K0.000 F50.000
G2 X66.613 Y44.524 Z1.000 I0.524 J-1.612 K0.000 F50.000
G2 X65.524 Y42.388 Z1.000 I-1.612 J-0.524 K0.000 F50.000
G2 X63.305 Y43.994 Z1.000 I-0.524 J1.612 K0.000 F50.000
G1 X63.305 Y43.994 Z0.500 F50.000
G2 X64.476 Y45.613 Z0.500 I1.695 J0.006 K0.000 F50.000
G2 X66.613 Y44.524 Z0.500 I0.524 J-1.612 K0.000 F50.000
G2 X65.524 Y42.388 Z0.500 I-1.612 J-0.524 K0.000 F50.000
G2 X63.305 Y43.994 Z0.500 I-0.524 J1.612 K0.000 F50.000
G1 X63.305 Y43.994 Z0.000 F50.000
G2 X64.476 Y45.613 Z0.000 I1.695 J0.006 K0.000 F50.000
G2 X66.613 Y44.524 Z0.000 I0.524 J-1.612 K0.000 F50.000
G2 X65.524 Y42.388 Z0.000 I-1.612 J-0.524 K0.000 F50.000
G2 X63.305 Y43.994 Z0.000 I-0.524 J1.612 K0.000 F50.000
G0 Z8.000
G0 Z8.000
G0 X63.305 Y43.994
G0 X66.971 Y54.912
G0 X66.971 Y54.912 Z6.000
G1 X66.971 Y54.912 Z2.500 F50.000
G2 X66.972 Y55.087 Z2.500 I0.029 J0.087 K0.000 F50.000
G2 X67.044 Y54.918 Z2.500 I0.029 J-0.087 K0.000 F50.000
G1 X67.028 Y54.911 Z2.500 F50.000
G2 X66.971 Y54.912 Z2.500 I-0.027 J0.088 K0.000 F50.000
G1 X66.971 Y54.912 Z2.000 F50.000
G2 X66.972 Y55.087 Z2.000 I0.029 J0.087 K0.000 F50.000
G2 X67.044 Y54.918 Z2.000 I0.029 J-0.087 K0.000 F50.000
G1 X67.028 Y54.911 Z2.000 F50.000
G2 X66.971 Y54.912 Z2.000 I-0.027 J0.088 K0.000 F50.000
G1 X66.971 Y54.912 Z1.500 F50.000
G2 X66.972 Y55.087 Z1.500 I0.029 J0.087 K0.000 F50.000
G2 X67.044 Y54.918 Z1.500 I0.029 J-0.087 K0.000 F50.000
G1 X67.028 Y54.911 Z1.500 F50.000
G2 X66.971 Y54.912 Z1.500 I-0.027 J0.088 K0.000 F50.000
G1 X66.971 Y54.912 Z1.000 F50.000
G2 X66.972 Y55.087 Z1.000 I0.029 J0.087 K0.000 F50.000
G2 X67.044 Y54.918 Z1.000 I0.029 J-0.087 K0.000 F50.000
G1 X67.028 Y54.911 Z1.000 F50.000
G2 X66.971 Y54.912 Z1.000 I-0.027 J0.088 K0.000 F50.000
G1 X66.971 Y54.912 Z0.500 F50.000
G2 X66.972 Y55.087 Z0.500 I0.029 J0.087 K0.000 F50.000
G2 X67.044 Y54.918 Z0.500 I0.029 J-0.087 K0.000 F50.000
G1 X67.028 Y54.911 Z0.500 F50.000
G2 X66.971 Y54.912 Z0.500 I-0.027 J0.088 K0.000 F50.000
G1 X66.971 Y54.912 Z0.000 F50.000
G2 X66.972 Y55.087 Z0.000 I0.029 J0.087 K0.000 F50.000
G2 X67.044 Y54.918 Z0.000 I0.029 J-0.087 K0.000 F50.000
G1 X67.028 Y54.911 Z0.000 F50.000
G2 X66.971 Y54.912 Z0.000 I-0.027 J0.088 K0.000 F50.000
G0 Z8.000
G0 Z8.000
G0 X66.971 Y54.912
G0 X55.187 Y-51.315
G0 X55.187 Y-51.315 Z6.000
G1 X55.187 Y-51.315 Z2.500 F50.000
G2 X55.524 Y-54.612 Z2.500 I-0.187 J-1.685 K0.000 F50.000
G2 X54.476 Y-51.388 Z2.500 I-0.524 J1.612 K0.000 F50.000
G2 X55.187 Y-51.315 Z2.500 I0.524 J-1.612 K0.000 F50.000
G1 X55.187 Y-51.315 Z2.000 F50.000
G2 X55.524 Y-54.612 Z2.000 I-0.187 J-1.685 K0.000 F50.000
G2 X54.476 Y-51.388 Z2.000 I-0.524 J1.612 K0.000 F50.000
G2 X55.187 Y-51.315 Z2.000 I0.524 J-1.612 K0.000 F50.000
G1 X55.187 Y-51.315 Z1.500 F50.000
G2 X55.524 Y-54.612 Z1.500 I-0.187 J-1.685 K0.000 F50.000
G2 X54.476 Y-51.388 Z1.500 I-0.524 J1.612 K0.000 F50.000
G2 X55.187 Y-51.315 Z1.500 I0.524 J-1.612 K0.000 F50.000
G1 X55.187 Y-51.315 Z1.000 F50.000
G2 X55.524 Y-54.612 Z1.000 I-0.187 J-1.685 K0.000 F50.000
G2 X54.476 Y-51.388 Z1.000 I-0.524 J1.612 K0.000 F50.000
G2 X55.187 Y-51.315 Z1.000 I0.524 J-1.612 K0.000 F50.000
G1 X55.187 Y-51.315 Z0.500 F50.000
G2 X55.524 Y-54.612 Z0.500 I-0.187 J-1.685 K0.000 F50.000
G2 X54.476 Y-51.388 Z0.500 I-0.524 J1.612 K0.000 F50.000
G2 X55.187 Y-51.315 Z0.500 I0.524 J-1.612 K0.000 F50.000
G1 X55.187 Y-51.315 Z0.000 F50.000
G2 X55.524 Y-54.612 Z0.000 I-0.187 J-1.685 K0.000 F50.000
G2 X54.476 Y-51.388 Z0.000 I-0.524 J1.612 K0.000 F50.000
G2 X55.187 Y-51.315 Z0.000 I0.524 J-1.612 K0.000 F50.000
G0 Z8.000
G0 Z8.000
G0 X55.187 Y-51.315
G0 X66.913 Y-54.973
G0 X66.913 Y-54.973 Z6.000
G1 X66.913 Y-54.973 Z2.500 F50.000
G2 X66.972 Y-54.913 Z2.500 I0.088 J-0.027 K0.000 F50.000
G2 X67.044 Y-55.082 Z2.500 I0.029 J-0.087 K0.000 F50.000
G1 X67.028 Y-55.089 Z2.500 F50.000
G2 X66.913 Y-54.973 Z2.500 I-0.027 J0.088 K0.000 F50.000
G1 X66.913 Y-54.973 Z2.000 F50.000
G2 X66.972 Y-54.913 Z2.000 I0.088 J-0.027 K0.000 F50.000
G2 X67.044 Y-55.082 Z2.000 I0.029 J-0.087 K0.000 F50.000
G1 X67.028 Y-55.089 Z2.000 F50.000
G2 X66.913 Y-54.973 Z2.000 I-0.027 J0.088 K0.000 F50.000
G1 X66.913 Y-54.973 Z1.500 F50.000
G2 X66.972 Y-54.913 Z1.500 I0.088 J-0.027 K0.000 F50.000
G2 X67.044 Y-55.082 Z1.500 I0.029 J-0.087 K0.000 F50.000
G1 X67.028 Y-55.089 Z1.500 F50.000
G2 X66.913 Y-54.973 Z1.500 I-0.027 J0.088 K0.000 F50.000
G1 X66.913 Y-54.973 Z1.000 F50.000
G2 X66.972 Y-54.913 Z1.000 I0.088 J-0.027 K0.000 F50.000
G2 X67.044 Y-55.082 Z1.000 I0.029 J-0.087 K0.000 F50.000
G1 X67.028 Y-55.089 Z1.000 F50.000
G2 X66.913 Y-54.973 Z1.000 I-0.027 J0.088 K0.000 F50.000
G1 X66.913 Y-54.973 Z0.500 F50.000
G2 X66.972 Y-54.913 Z0.500 I0.088 J-0.027 K0.000 F50.000
G2 X67.044 Y-55.082 Z0.500 I0.029 J-0.087 K0.000 F50.000
G1 X67.028 Y-55.089 Z0.500 F50.000
G2 X66.913 Y-54.973 Z0.500 I-0.027 J0.088 K0.000 F50.000
G1 X66.913 Y-54.973 Z0.000 F50.000
G2 X66.972 Y-54.913 Z0.000 I0.088 J-0.027 K0.000 F50.000
G2 X67.044 Y-55.082 Z0.000 I0.029 J-0.087 K0.000 F50.000
G1 X67.028 Y-55.089 Z0.000 F50.000
G2 X66.913 Y-54.973 Z0.000 I-0.027 J0.088 K0.000 F50.000
G0 Z8.000
G0 Z8.000
G0 X66.913 Y-54.973
G0 X3.689 Y-48.942
G0 X3.689 Y-48.942 Z6.000
G1 X3.689 Y-48.942 Z2.500 F50.000
G2 X2.662 Y-50.222 Z2.500 I-1.489 J0.142 K0.000 F50.000
G2 X1.738 Y-47.377 Z2.500 I-0.462 J1.422 K0.000 F50.000
G2 X3.689 Y-48.942 Z2.500 I0.462 J-1.422 K0.000 F50.000
G1 X3.689 Y-48.942 Z2.000 F50.000
G2 X2.662 Y-50.222 Z2.000 I-1.489 J0.142 K0.000 F50.000
G2 X1.738 Y-47.377 Z2.000 I-0.462 J1.422 K0.000 F50.000
G2 X3.689 Y-48.942 Z2.000 I0.462 J-1.422 K0.000 F50.000
G1 X3.689 Y-48.942 Z1.500 F50.000
G2 X2.662 Y-50.222 Z1.500 I-1.489 J0.142 K0.000 F50.000
G2 X1.738 Y-47.377 Z1.500 I-0.462 J1.422 K0.000 F50.000
G2 X3.689 Y-48.942 Z1.500 I0.462 J-1.422 K0.000 F50.000
G1 X3.689 Y-48.942 Z1.000 F50.000
G2 X2.662 Y-50.222 Z1.000 I-1.489 J0.142 K0.000 F50.000
G2 X1.738 Y-47.377 Z1.000 I-0.462 J1.422 K0.000 F50.000
G2 X3.689 Y-48.942 Z1.000 I0.462 J-1.422 K0.000 F50.000
G1 X3.689 Y-48.942 Z0.500 F50.000
G2 X2.662 Y-50.222 Z0.500 I-1.489 J0.142 K0.000 F50.000
G2 X1.738 Y-47.377 Z0.500 I-0.462 J1.422 K0.000 F50.000
G2 X3.689 Y-48.942 Z0.500 I0.462 J-1.422 K0.000 F50.000
G1 X3.689 Y-48.942 Z0.000 F50.000
G2 X2.662 Y-50.222 Z0.000 I-1.489 J0.142 K0.000 F50.000
G2 X1.738 Y-47.377 Z0.000 I-0.462 J1.422 K0.000 F50.000
G2 X3.689 Y-48.942 Z0.000 I0.462 J-1.422 K0.000 F50.000
G0 Z8.000
G0 Z8.000
G0 X3.689 Y-48.942
G0 X-11.304 Y-48.812
G0 X-11.304 Y-48.812 Z6.000
G1 X-11.304 Y-48.812 Z2.500 F50.000
G2 X-12.338 Y-50.222 Z2.500 I-1.495 J0.013 K0.000 F50.000
G2 X-13.262 Y-47.377 Z2.500 I-0.462 J1.422 K0.000 F50.000
G2 X-11.304 Y-48.812 Z2.500 I0.462 J-1.422 K0.000 F50.000
G1 X-11.304 Y-48.812 Z2.000 F50.000
G2 X-12.338 Y-50.222 Z2.000 I-1.495 J0.013 K0.000 F50.000
G2 X-13.262 Y-47.377 Z2.000 I-0.462 J1.422 K0.000 F50.000
G2 X-11.304 Y-48.812 Z2.000 I0.462 J-1.422 K0.000 F50.000
G1 X-11.304 Y-48.812 Z1.500 F50.000
G2 X-12.338 Y-50.222 Z1.500 I-1.495 J0.013 K0.000 F50.000
G2 X-13.262 Y-47.377 Z1.500 I-0.462 J1.422 K0.000 F50.000
G2 X-11.304 Y-48.812 Z1.500 I0.462 J-1.422 K0.000 F50.000
G1 X-11.304 Y-48.812 Z1.000 F50.000
G2 X-12.338 Y-50.222 Z1.000 I-1.495 J0.013 K0.000 F50.000
G2 X-13.262 Y-47.377 Z1.000 I-0.462 J1.422 K0.000 F50.000
G2 X-11.304 Y-48.812 Z1.000 I0.462 J-1.422 K0.000 F50.000
G1 X-11.304 Y-48.812 Z0.500 F50.000
G2 X-12.338 Y-50.222 Z0.500 I-1.495 J0.013 K0.000 F50.000
G2 X-13.262 Y-47.377 Z0.500 I-0.462 J1.422 K0.000 F50.000
G2 X-11.304 Y-48.812 Z0.500 I0.462 J-1.422 K0.000 F50.000
G1 X-11.304 Y-48.812 Z0.000 F50.000
G2 X-12.338 Y-50.222 Z0.000 I-1.495 J0.013 K0.000 F50.000
G2 X-13.262 Y-47.377 Z0.000 I-0.462 J1.422 K0.000 F50.000
G2 X-11.304 Y-48.812 Z0.000 I0.462 J-1.422 K0.000 F50.000
G0 Z8.000
G0 Z8.000
G0 X-11.304 Y-48.812
G0 X-26.304 Y-48.801
G0 X-26.304 Y-48.801 Z6.000
G1 X-26.304 Y-48.801 Z2.500 F50.000
G2 X-27.338 Y-50.222 Z2.500 I-1.495 J0.001 K0.000 F50.000
G2 X-28.262 Y-47.377 Z2.500 I-0.462 J1.422 K0.000 F50.000
G2 X-26.304 Y-48.801 Z2.500 I0.462 J-1.422 K0.000 F50.000
G1 X-26.304 Y-48.801 Z2.000 F50.000
G2 X-27.338 Y-50.222 Z2.000 I-1.495 J0.001 K0.000 F50.000
G2 X-28.262 Y-47.377 Z2.000 I-0.462 J1.422 K0.000 F50.000
G2 X-26.304 Y-48.801 Z2.000 I0.462 J-1.422 K0.000 F50.000
G1 X-26.304 Y-48.801 Z1.500 F50.000
G2 X-27.338 Y-50.222 Z1.500 I-1.495 J0.001 K0.000 F50.000
G2 X-28.262 Y-47.377 Z1.500 I-0.462 J1.422 K0.000 F50.000
G2 X-26.304 Y-48.801 Z1.500 I0.462 J-1.422 K0.000 F50.000
G1 X-26.304 Y-48.801 Z1.000 F50.000
G2 X-27.338 Y-50.222 Z1.000 I-1.495 J0.001 K0.000 F50.000
G2 X-28.262 Y-47.377 Z1.000 I-0.462 J1.422 K0.000 F50.000
G2 X-26.304 Y-48.801 Z1.000 I0.462 J-1.422 K0.000 F50.000
G1 X-26.304 Y-48.801 Z0.500 F50.000
G2 X-27.338 Y-50.222 Z0.500 I-1.495 J0.001 K0.000 F50.000
G2 X-28.262 Y-47.377 Z0.500 I-0.462 J1.422 K0.000 F50.000
G2 X-26.304 Y-48.801 Z0.500 I0.462 J-1.422 K0.000 F50.000
G1 X-26.304 Y-48.801 Z0.000 F50.000
G2 X-27.338 Y-50.222 Z0.000 I-1.495 J0.001 K0.000 F50.000
G2 X-28.262 Y-47.377 Z0.000 I-0.462 J1.422 K0.000 F50.000
G2 X-26.304 Y-48.801 Z0.000 I0.462 J-1.422 K0.000 F50.000
G0 Z8.000
G0 Z8.000
G0 X-26.304 Y-48.801
G0 X-41.303 Y-48.800
G0 X-41.303 Y-48.800 Z6.000
G1 X-41.303 Y-48.800 Z2.500 F50.000
G2 X-43.306 Y-51.247 Z2.500 I-2.497 J0.000 K0.000 F50.000
G2 X-44.294 Y-46.352 Z2.500 I-0.494 J2.447 K0.000 F50.000
G2 X-41.303 Y-48.800 Z2.500 I0.494 J-2.447 K0.000 F50.000
G1 X-41.303 Y-48.800 Z2.000 F50.000
G2 X-43.306 Y-51.247 Z2.000 I-2.497 J0.000 K0.000 F50.000
G2 X-44.294 Y-46.352 Z2.000 I-0.494 J2.447 K0.000 F50.000
G2 X-41.303 Y-48.800 Z2.000 I0.494 J-2.447 K0.000 F50.000
G1 X-41.303 Y-48.800 Z1.500 F50.000
G2 X-43.306 Y-51.247 Z1.500 I-2.497 J0.000 K0.000 F50.000
G2 X-44.294 Y-46.352 Z1.500 I-0.494 J2.447 K0.000 F50.000
G2 X-41.303 Y-48.800 Z1.500 I0.494 J-2.447 K0.000 F50.000
G1 X-41.303 Y-48.800 Z1.000 F50.000
G2 X-43.306 Y-51.247 Z1.000 I-2.497 J0.000 K0.000 F50.000
G2 X-44.294 Y-46.352 Z1.000 I-0.494 J2.447 K0.000 F50.000
G2 X-41.303 Y-48.800 Z1.000 I0.494 J-2.447 K0.000 F50.000
G1 X-41.303 Y-48.800 Z0.500 F50.000
G2 X-43.306 Y-51.247 Z0.500 I-2.497 J0.000 K0.000 F50.000
G2 X-44.294 Y-46.352 Z0.500 I-0.494 J2.447 K0.000 F50.000
G2 X-41.303 Y-48.800 Z0.500 I0.494 J-2.447 K0.000 F50.000
G1 X-41.303 Y-48.800 Z0.000 F50.000
G2 X-43.306 Y-51.247 Z0.000 I-2.497 J0.000 K0.000 F50.000
G2 X-44.294 Y-46.352 Z0.000 I-0.494 J2.447 K0.000 F50.000
G2 X-41.303 Y-48.800 Z0.000 I0.494 J-2.447 K0.000 F50.000
G0 Z8.000
G0 Z8.000
G0 X-41.303 Y-48.800
G0 X-53.379 Y-52.503
G0 X-53.379 Y-52.503 Z6.000
G1 X-53.379 Y-52.503 Z2.500 F50.000
G2 X-54.476 Y-54.612 Z2.500 I-1.621 J-0.497 K0.000 F50.000
G2 X-55.524 Y-51.388 Z2.500 I-0.524 J1.612 K0.000 F50.000
G2 X-53.379 Y-52.503 Z2.500 I0.524 J-1.612 K0.000 F50.000
G1 X-53.379 Y-52.503 Z2.000 F50.000
G2 X-54.476 Y-54.612 Z2.000 I-1.621 J-0.497 K0.000 F50.000
G2 X-55.524 Y-51.388 Z2.000 I-0.524 J1.612 K0.000 F50.000
G2 X-53.379 Y-52.503 Z2.000 I0.524 J-1.612 K0.000 F50.000
G1 X-53.379 Y-52.503 Z1.500 F50.000
G2 X-54.476 Y-54.612 Z1.500 I-1.621 J-0.497 K0.000 F50.000
G2 X-55.524 Y-51.388 Z1.500 I-0.524 J1.612 K0.000 F50.000
G2 X-53.379 Y-52.503 Z1.500 I0.524 J-1.612 K0.000 F50.000
G1 X-53.379 Y-52.503 Z1.000 F50.000
G2 X-54.476 Y-54.612 Z1.000 I-1.621 J-0.497 K0.000 F50.000
G2 X-55.524 Y-51.388 Z1.000 I-0.524 J1.612 K0.000 F50.000
G2 X-53.379 Y-52.503 Z1.000 I0.524 J-1.612 K0.000 F50.000
G1 X-53.379 Y-52.503 Z0.500 F50.000
G2 X-54.476 Y-54.612 Z0.500 I-1.621 J-0.497 K0.000 F50.000
G2 X-55.524 Y-51.388 Z0.500 I-0.524 J1.612 K0.000 F50.000
G2 X-53.379 Y-52.503 Z0.500 I0.524 J-1.612 K0.000 F50.000
G1 X-53.379 Y-52.503 Z0.000 F50.000
G2 X-54.476 Y-54.612 Z0.000 I-1.621 J-0.497 K0.000 F50.000
G2 X-55.524 Y-51.388 Z0.000 I-0.524 J1.612 K0.000 F50.000
G2 X-53.379 Y-52.503 Z0.000 I0.524 J-1.612 K0.000 F50.000
G0 Z8.000
G0 Z8.000
G0 X-53.379 Y-52.503
G0 X-66.909 Y-54.983
G0 X-66.909 Y-54.983 Z6.000
G1 X-66.909 Y-54.983 Z2.500 F50.000
G2 X-66.972 Y-55.089 Z2.500 I-0.091 J-0.017 K0.000 F50.000
G2 X-67.089 Y-55.028 Z2.500 I-0.028 J0.089 K0.000 F50.000
G2 X-67.028 Y-54.911 Z2.500 I0.089 J0.028 K0.000 F50.000
G2 X-66.909 Y-54.983 Z2.500 I0.028 J-0.089 K0.000 F50.000
G1 X-66.909 Y-54.983 Z2.000 F50.000
G2 X-66.972 Y-55.089 Z2.000 I-0.091 J-0.017 K0.000 F50.000
G2 X-67.089 Y-55.028 Z2.000 I-0.028 J0.089 K0.000 F50.000
G2 X-67.028 Y-54.911 Z2.000 I0.089 J0.028 K0.000 F50.000
G2 X-66.909 Y-54.983 Z2.000 I0.028 J-0.089 K0.000 F50.000
G1 X-66.909 Y-54.983 Z1.500 F50.000
G2 X-66.972 Y-55.089 Z1.500 I-0.091 J-0.017 K0.000 F50.000
G2 X-67.089 Y-55.028 Z1.500 I-0.028 J0.089 K0.000 F50.000
G2 X-67.028 Y-54.911 Z1.500 I0.089 J0.028 K0.000 F50.000
G2 X-66.909 Y-54.983 Z1.500 I0.028 J-0.089 K0.000 F50.000
G1 X-66.909 Y-54.983 Z1.000 F50.000
G2 X-66.972 Y-55.089 Z1.000 I-0.091 J-0.017 K0.000 F50.000
G2 X-67.089 Y-55.028 Z1.000 I-0.028 J0.089 K0.000 F50.000
G2 X-67.028 Y-54.911 Z1.000 I0.089 J0.028 K0.000 F50.000
G2 X-66.909 Y-54.983 Z1.000 I0.028 J-0.089 K0.000 F50.000
G1 X-66.909 Y-54.983 Z0.500 F50.000
G2 X-66.972 Y-55.089 Z0.500 I-0.091 J-0.017 K0.000 F50.000
G2 X-67.089 Y-55.028 Z0.500 I-0.028 J0.089 K0.000 F50.000
G2 X-67.028 Y-54.911 Z0.500 I0.089 J0.028 K0.000 F50.000
G2 X-66.909 Y-54.983 Z0.500 I0.028 J-0.089 K0.000 F50.000
G1 X-66.909 Y-54.983 Z0.000 F50.000
G2 X-66.972 Y-55.089 Z0.000 I-0.091 J-0.017 K0.000 F50.000
G2 X-67.089 Y-55.028 Z0.000 I-0.028 J0.089 K0.000 F50.000
G2 X-67.028 Y-54.911 Z0.000 I0.089 J0.028 K0.000 F50.000
G2 X-66.909 Y-54.983 Z0.000 I0.028 J-0.089 K0.000 F50.000
G0 Z8.000
G0 Z8.000
G0 X-66.909 Y-54.983
G0 X-60.283 Y-28.357
G0 X-60.283 Y-28.357 Z6.000
G1 X-60.283 Y-28.357 Z2.500 F50.000
G2 X-60.174 Y-23.487 Z2.500 I0.603 J2.423 K0.000 F50.000
G2 X-59.186 Y-28.381 Z2.500 I0.494 J-2.447 K0.000 F50.000
G2 X-60.283 Y-28.357 Z2.500 I-0.494 J2.447 K0.000 F50.000
G1 X-60.283 Y-28.357 Z2.000 F50.000
G2 X-60.174 Y-23.487 Z2.000 I0.603 J2.423 K0.000 F50.000
G2 X-59.186 Y-28.381 Z2.000 I0.494 J-2.447 K0.000 F50.000
G2 X-60.283 Y-28.357 Z2.000 I-0.494 J2.447 K0.000 F50.000
G1 X-60.283 Y-28.357 Z1.500 F50.000
G2 X-60.174 Y-23.487 Z1.500 I0.603 J2.423 K0.000 F50.000
G2 X-59.186 Y-28.381 Z1.500 I0.494 J-2.447 K0.000 F50.000
G2 X-60.283 Y-28.357 Z1.500 I-0.494 J2.447 K0.000 F50.000
G1 X-60.283 Y-28.357 Z1.000 F50.000
G2 X-60.174 Y-23.487 Z1.000 I0.603 J2.423 K0.000 F50.000
G2 X-59.186 Y-28.381 Z1.000 I0.494 J-2.447 K0.000 F50.000
G2 X-60.283 Y-28.357 Z1.000 I-0.494 J2.447 K0.000 F50.000
G1 X-60.283 Y-28.357 Z0.500 F50.000
G2 X-60.174 Y-23.487 Z0.500 I0.603 J2.423 K0.000 F50.000
G2 X-59.186 Y-28.381 Z0.500 I0.494 J-2.447 K0.000 F50.000
G2 X-60.283 Y-28.357 Z0.500 I-0.494 J2.447 K0.000 F50.000
G1 X-60.283 Y-28.357 Z0.000 F50.000
G2 X-60.174 Y-23.487 Z0.000 I0.603 J2.423 K0.000 F50.000
G2 X-59.186 Y-28.381 Z0.000 I0.494 J-2.447 K0.000 F50.000
G2 X-60.283 Y-28.357 Z0.000 I-0.494 J2.447 K0.000 F50.000
G0 Z8.000
G0 Z8.000
G0 X-60.283 Y-28.357
G0 X-46.908 Y-26.312
G0 X-46.908 Y-26.312 Z6.000
G1 X-46.908 Y-26.312 Z2.500 F50.000
G2 X-44.934 Y-23.487 Z2.500 I2.468 J0.377 K0.000 F50.000
G2 X-41.992 Y-25.440 Z2.500 I0.494 J-2.447 K0.000 F50.000
G2 X-43.946 Y-28.381 Z2.500 I-2.447 J-0.494 K0.000 F50.000
G2 X-46.908 Y-26.312 Z2.500 I-0.494 J2.447 K0.000 F50.000
G1 X-46.908 Y-26.312 Z2.000 F50.000
G2 X-44.934 Y-23.487 Z2.000 I2.468 J0.377 K0.000 F50.000
G2 X-41.992 Y-25.440 Z2.000 I0.494 J-2.447 K0.000 F50.000
G2 X-43.946 Y-28.381 Z2.000 I-2.447 J-0.494 K0.000 F50.000
G2 X-46.908 Y-26.312 Z2.000 I-0.494 J2.447 K0.000 F50.000
G1 X-46.908 Y-26.312 Z1.500 F50.000
G2 X-44.934 Y-23.487 Z1.500 I2.468 J0.377 K0.000 F50.000
G2 X-41.992 Y-25.440 Z1.500 I0.494 J-2.447 K0.000 F50.000
G2 X-43.946 Y-28.381 Z1.500 I-2.447 J-0.494 K0.000 F50.000
G2 X-46.908 Y-26.312 Z1.500 I-0.494 J2.447 K0.000 F50.000
G1 X-46.908 Y-26.312 Z1.000 F50.000
G2 X-44.934 Y-23.487 Z1.000 I2.468 J0.377 K0.000 F50.000
G2 X-41.992 Y-25.440 Z1.000 I0.494 J-2.447 K0.000 F50.000
G2 X-43.946 Y-28.381 Z1.000 I-2.447 J-0.494 K0.000 F50.000
G2 X-46.908 Y-26.312 Z1.000 I-0.494 J2.447 K0.000 F50.000
G1 X-46.908 Y-26.312 Z0.500 F50.000
G2 X-44.934 Y-23.487 Z0.500 I2.468 J0.377 K0.000 F50.000
G2 X-41.992 Y-25.440 Z0.500 I0.494 J-2.447 K0.000 F50.000
G2 X-43.946 Y-28.381 Z0.500 I-2.447 J-0.494 K0.000 F50.000
G2 X-46.908 Y-26.312 Z0.500 I-0.494 J2.447 K0.000 F50.000
G1 X-46.908 Y-26.312 Z0.000 F50.000
G2 X-44.934 Y-23.487 Z0.000 I2.468 J0.377 K0.000 F50.000
G2 X-41.992 Y-25.440 Z0.000 I0.494 J-2.447 K0.000 F50.000
G2 X-43.946 Y-28.381 Z0.000 I-2.447 J-0.494 K0.000 F50.000
G2 X-46.908 Y-26.312 Z0.000 I-0.494 J2.447 K0.000 F50.000
G0 Z8.000
G0 Z8.000
G0 X-46.908 Y-26.312
G0 X-31.696 Y-25.987
G0 X-31.696 Y-25.987 Z6.000
G1 X-31.696 Y-25.987 Z2.500 F50.000
G2 X-29.694 Y-23.487 Z2.500 I2.496 J0.053 K0.000 F50.000
G2 X-26.752 Y-25.440 Z2.500 I0.494 J-2.447 K0.000 F50.000
G2 X-28.706 Y-28.381 Z2.500 I-2.447 J-0.494 K0.000 F50.000
G2 X-31.696 Y-25.987 Z2.500 I-0.494 J2.447 K0.000 F50.000
G1 X-31.696 Y-25.987 Z2.000 F50.000
G2 X-29.694 Y-23.487 Z2.000 I2.496 J0.053 K0.000 F50.000
G2 X-26.752 Y-25.440 Z2.000 I0.494 J-2.447 K0.000 F50.000
G2 X-28.706 Y-28.381 Z2.000 I-2.447 J-0.494 K0.000 F50.000
G2 X-31.696 Y-25.987 Z2.000 I-0.494 J2.447 K0.000 F50.000
G1 X-31.696 Y-25.987 Z1.500 F50.000
G2 X-29.694 Y-23.487 Z1.500 I2.496 J0.053 K0.000 F50.000
G2 X-26.752 Y-25.440 Z1.500 I0.494 J-2.447 K0.000 F50.000
G2 X-28.706 Y-28.381 Z1.500 I-2.447 J-0.494 K0.000 F50.000
G2 X-31.696 Y-25.987 Z1.500 I-0.494 J2.447 K0.000 F50.000
G1 X-31.696 Y-25.987 Z1.000 F50.000
G2 X-29.694 Y-23.487 Z1.000 I2.496 J0.053 K0.000 F50.000
G2 X-26.752 Y-25.440 Z1.000 I0.494 J-2.447 K0.000 F50.000
G2 X-28.706 Y-28.381 Z1.000 I-2.447 J-0.494 K0.000 F50.000
G2 X-31.696 Y-25.987 Z1.000 I-0.494 J2.447 K0.000 F50.000
G1 X-31.696 Y-25.987 Z0.500 F50.000
G2 X-29.694 Y-23.487 Z0.500 I2.496 J0.053 K0.000 F50.000
G2 X-26.752 Y-25.440 Z0.500 I0.494 J-2.447 K0.000 F50.000
G2 X-28.706 Y-28.381 Z0.500 I-2.447 J-0.494 K0.000 F50.000
G2 X-31.696 Y-25.987 Z0.500 I-0.494 J2.447 K0.000 F50.000
G1 X-31.696 Y-25.987 Z0.000 F50.000
G2 X-29.694 Y-23.487 Z0.000 I2.496 J0.053 K0.000 F50.000
G2 X-26.752 Y-25.440 Z0.000 I0.494 J-2.447 K0.000 F50.000
G2 X-28.706 Y-28.381 Z0.000 I-2.447 J-0.494 K0.000 F50.000
G2 X-31.696 Y-25.987 Z0.000 I-0.494 J2.447 K0.000 F50.000
G0 Z8.000
G0 Z8.000
G0 X-31.696 Y-25.987
G0 X-16.456 Y-25.942
G0 X-16.456 Y-25.942 Z6.000
G1 X-16.456 Y-25.942 Z2.500 F50.000
G2 X-14.454 Y-23.487 Z2.500 I2.497 J0.007 K0.000 F50.000
G2 X-11.512 Y-25.440 Z2.500 I0.494 J-2.447 K0.000 F50.000
G2 X-13.465 Y-28.381 Z2.500 I-2.447 J-0.494 K0.000 F50.000
G2 X-16.456 Y-25.942 Z2.500 I-0.494 J2.447 K0.000 F50.000
G1 X-16.456 Y-25.942 Z2.000 F50.000
G2 X-14.454 Y-23.487 Z2.000 I2.497 J0.007 K0.000 F50.000
G2 X-11.512 Y-25.440 Z2.000 I0.494 J-2.447 K0.000 F50.000
G2 X-13.465 Y-28.381 Z2.000 I-2.447 J-0.494 K0.000 F50.000
G2 X-16.456 Y-25.942 Z2.000 I-0.494 J2.447 K0.000 F50.000
G1 X-16.456 Y-25.942 Z1.500 F50.000
G2 X-14.454 Y-23.487 Z1.500 I2.497 J0.007 K0.000 F50.000
G2 X-11.512 Y-25.440 Z1.500 I0.494 J-2.447 K0.000 F50.000
G2 X-13.465 Y-28.381 Z1.500 I-2.447 J-0.494 K0.000 F50.000
G2 X-16.456 Y-25.942 Z1.500 I-0.494 J2.447 K0.000 F50.000
G1 X-16.456 Y-25.942 Z1.000 F50.000
G2 X-14.454 Y-23.487 Z1.000 I2.497 J0.007 K0.000 F50.000
G2 X-11.512 Y-25.440 Z1.000 I0.494 J-2.447 K0.000 F50.000
G2 X-13.465 Y-28.381 Z1.000 I-2.447 J-0.494 K0.000 F50.000
G2 X-16.456 Y-25.942 Z1.000 I-0.494 J2.447 K0.000 F50.000
G1 X-16.456 Y-25.942 Z0.500 F50.000
G2 X-14.454 Y-23.487 Z0.500 I2.497 J0.007 K0.000 F50.000
G2 X-11.512 Y-25.440 Z0.500 I0.494 J-2.447 K0.000 F50.000
G2 X-13.465 Y-28.381 Z0.500 I-2.447 J-0.494 K0.000 F50.000
G2 X-16.456 Y-25.942 Z0.500 I-0.494 J2.447 K0.000 F50.000
G1 X-16.456 Y-25.942 Z0.000 F50.000
G2 X-14.454 Y-23.487 Z0.000 I2.497 J0.007 K0.000 F50.000
G2 X-11.512 Y-25.440 Z0.000 I0.494 J-2.447 K0.000 F50.000
G2 X-13.465 Y-28.381 Z0.000 I-2.447 J-0.494 K0.000 F50.000
G2 X-16.456 Y-25.942 Z0.000 I-0.494 J2.447 K0.000 F50.000
G0 Z8.000
G0 Z8.000
(Finish operation: holes)
(Begin operation: DressupTag)
(Path: DressupTag)
G0 Z8.000
G0 X71.594 Y59.595 Z8.000
G0 X71.594 Y59.595 Z6.000
G1 X71.594 Y59.595 Z2.500 F50.000
G2 X73.497 Y55.091 Z2.500 I-4.598 J-4.597 K0.000 F50.000
G1 X73.500 Y-55.000 Z2.500 F50.000
G2 X67.091 Y-61.497 Z2.500 I-6.502 J0.004 K0.000 F50.000
G1 X-67.000 Y-61.500 Z2.500 F50.000
G2 X-73.497 Y-55.091 Z2.500 I0.004 J6.502 K0.000 F50.000
G1 X-73.500 Y55.000 Z2.500 F50.000
G2 X-67.091 Y61.497 Z2.500 I6.502 J-0.004 K0.000 F50.000
G1 X67.000 Y61.500 Z2.500 F50.000
G2 X71.594 Y59.595 Z2.500 I-0.004 J-6.502 K0.000 F50.000
G1 X71.594 Y59.595 Z2.000 F50.000
G2 X73.497 Y55.091 Z2.000 I-4.598 J-4.597 K0.000 F50.000
G1 X73.500 Y-55.000 Z2.000 F50.000
G2 X67.091 Y-61.497 Z2.000 I-6.502 J0.004 K0.000 F50.000
G1 X-67.000 Y-61.500 Z2.000 F50.000
G2 X-73.497 Y-55.091 Z2.000 I0.004 J6.502 K0.000 F50.000
G1 X-73.500 Y55.000 Z2.000 F50.000
G2 X-67.091 Y61.497 Z2.000 I6.502 J-0.004 K0.000 F50.000
G1 X67.000 Y61.500 Z2.000 F50.000
G2 X71.594 Y59.595 Z2.000 I-0.004 J-6.502 K0.000 F50.000
G1 X71.594 Y59.595 Z1.500 F50.000
G2 X73.497 Y55.091 Z1.500 I-4.598 J-4.597 K0.000 F50.000
G1 X73.500 Y-55.000 Z1.500 F50.000
G2 X67.091 Y-61.497 Z1.500 I-6.502 J0.004 K0.000 F50.000
G1 X-67.000 Y-61.500 Z1.500 F50.000
G2 X-73.497 Y-55.091 Z1.500 I0.004 J6.502 K0.000 F50.000
G1 X-73.500 Y55.000 Z1.500 F50.000
G2 X-67.091 Y61.497 Z1.500 I6.502 J-0.004 K0.000 F50.000
G1 X67.000 Y61.500 Z1.500 F50.000
G2 X71.594 Y59.595 Z1.500 I-0.004 J-6.502 K0.000 F50.000
G1 X71.594 Y59.595 Z1.000 F50.000
G2 X73.497 Y55.091 Z1.000 I-4.598 J-4.597 K0.000 F50.000
G1 X73.500 Y-55.000 Z1.000 F50.000
G2 X67.091 Y-61.497 Z1.000 I-6.502 J0.004 K0.000 F50.000
G1 X-67.000 Y-61.500 Z1.000 F50.000
G2 X-73.497 Y-55.091 Z1.000 I0.004 J6.502 K0.000 F50.000
G1 X-73.500 Y55.000 Z1.000 F50.000
G2 X-67.091 Y61.497 Z1.000 I6.502 J-0.004 K0.000 F50.000
G1 X67.000 Y61.500 Z1.000 F50.000
G2 X71.594 Y59.595 Z1.000 I-0.004 J-6.502 K0.000 F50.000
G1 X71.594 Y59.595 Z0.500 F50.000
G2 X73.497 Y55.091 Z0.500 I-4.598 J-4.597 K0.000 F50.000
G1 X73.500 Y-55.000 Z0.500 F50.000
G2 X67.091 Y-61.497 Z0.500 I-6.502 J0.004 K0.000 F50.000
G1 X39.558 Y-61.498 Z0.500 F50.000
G1 X39.058 Y-61.498 Z1.000 F50.000
G1 X28.078 Y-61.498 Z1.000 F50.000
G1 X27.578 Y-61.498 Z0.500 F50.000
G1 X-27.487 Y-61.499 Z0.500 F50.000
G1 X-27.987 Y-61.499 Z1.000 F50.000
G1 X-38.967 Y-61.499 Z1.000 F50.000
G1 X-39.467 Y-61.499 Z0.500 F50.000
G1 X-67.000 Y-61.500 Z0.500 F50.000
G2 X-73.497 Y-55.091 Z0.500 I0.004 J6.502 K0.000 F50.000
G1 X-73.500 Y55.000 Z0.500 F50.000
G2 X-67.091 Y61.497 Z0.500 I6.502 J-0.004 K0.000 F50.000
G1 X-39.558 Y61.498 Z0.500 F50.000
G1 X-39.058 Y61.498 Z1.000 F50.000
G1 X-28.078 Y61.498 Z1.000 F50.000
G1 X-27.578 Y61.498 Z0.500 F50.000
G1 X27.487 Y61.499 Z0.500 F50.000
G1 X27.987 Y61.499 Z1.000 F50.000
G1 X38.967 Y61.499 Z1.000 F50.000
G1 X39.467 Y61.499 Z0.500 F50.000
G1 X67.000 Y61.500 Z0.500 F50.000
G2 X71.594 Y59.595 Z0.500 I-0.004 J-6.502 K0.000 F50.000
G1 X71.594 Y59.595 Z0.000 F50.000
G2 X73.497 Y55.091 Z0.000 I-4.598 J-4.597 K0.000 F50.000
G1 X73.500 Y-55.000 Z0.000 F50.000
G2 X67.091 Y-61.497 Z0.000 I-6.502 J0.004 K0.000 F50.000
G1 X40.058 Y-61.498 Z0.000 F50.000
G1 X39.058 Y-61.498 Z1.000 F50.000
G1 X28.078 Y-61.498 Z1.000 F50.000
G1 X27.078 Y-61.498 Z0.000 F50.000
G1 X-26.987 Y-61.499 Z0.000 F50.000
G1 X-27.987 Y-61.499 Z1.000 F50.000
G1 X-38.967 Y-61.499 Z1.000 F50.000
G1 X-39.967 Y-61.499 Z0.000 F50.000
G1 X-67.000 Y-61.500 Z0.000 F50.000
G2 X-73.497 Y-55.091 Z0.000 I0.004 J6.502 K0.000 F50.000
G1 X-73.500 Y55.000 Z0.000 F50.000
G2 X-67.091 Y61.497 Z0.000 I6.502 J-0.004 K0.000 F50.000
G1 X-40.058 Y61.498 Z0.000 F50.000
G1 X-39.058 Y61.498 Z1.000 F50.000
G1 X-28.078 Y61.498 Z1.000 F50.000
G1 X-27.078 Y61.498 Z0.000 F50.000
G1 X26.987 Y61.499 Z0.000 F50.000
G1 X27.987 Y61.499 Z1.000 F50.000
G1 X38.967 Y61.499 Z1.000 F50.000
G1 X39.967 Y61.499 Z0.000 F50.000
G1 X67.000 Y61.500 Z0.000 F50.000
G2 X71.594 Y59.595 Z0.000 I-0.004 J-6.502 K0.000 F50.000
G0 X71.594 Y59.595 Z8.000
(Finish operation: DressupTag)
(Begin postamble)
M5
G17 G90
M2
